; generated by PrusaSlicer 2.1.1+ on 2020-02-15 at 03:43:14 UTC

; 

; external perimeters extrusion width = 0.60mm
; perimeters extrusion width = 0.50mm
; infill extrusion width = 0.50mm
; solid infill extrusion width = 0.50mm
; top infill extrusion width = 0.45mm
; support material extrusion width = 0.38mm
; first layer extrusion width = 0.42mm

M73 P0 R45
M73 Q0 S45
M201 X1000 Y1000 Z1000 E5000 ; sets maximum accelerations, mm/sec^2
M203 X200 Y200 Z12 E120 ; sets maximum feedrates, mm/sec
M204 P1250 R1250 T1250 ; sets acceleration (P, T) and retract acceleration (R), mm/sec^2
M205 X8.00 Y8.00 Z0.40 E4.50 ; sets the jerk limits, mm/sec
M205 S0 T0 ; sets the minimum extruding and travel feed rate, mm/sec
M107
M862.3 P "MK3S" ; printer model check
M862.1 P0.4 ; nozzle diameter check
M115 U3.8.1 ; tell printer latest fw version
G90 ; use absolute coordinates
M83 ; extruder relative mode
M104 S215 ; set extruder temp
M140 S60 ; set bed temp
M190 S60 ; wait for bed temp
M109 S215 ; wait for extruder temp
G28 W ; home all without mesh bed level
G80 ; mesh bed leveling
G1 Y-3.0 F1000.0 ; go outside print area
G92 E0.0
G1 X60.0 E9.0 F1000.0 ; intro line
M73 Q0 S45
M73 P0 R45
G1 X100.0 E12.5 F1000.0 ; intro line
G92 E0.0
M221 S95
G21 ; set units to millimeters
G90 ; use absolute coordinates
M83 ; use relative distances for extrusion
M900 K30 ; Filament gcode
;BEFORE_LAYER_CHANGE
G92 E0.0
;0.2


G1 E-0.80000 F2100.00000
G1 Z0.600 F10800.000
;AFTER_LAYER_CHANGE
;0.2
G1 X101.272 Y61.646
G1 Z0.200
G1 E0.80000 F2100.00000
M204 S1000
G1 F1200
G1 X101.846 Y61.369 E0.01998
G1 X102.476 Y61.270 E0.01998
G1 X137.195 Y61.269 E1.08860
G1 X138.045 Y61.443 E0.02721
G1 X138.764 Y61.936 E0.02732
G1 X169.526 Y94.520 E1.40503
G1 X170.771 Y95.946 E0.05937
G1 X171.845 Y97.554 E0.06061
G1 X172.679 Y99.237 E0.05889
G1 X173.071 Y100.278 E0.03490
G1 X173.555 Y102.097 E0.05900
G1 X173.808 Y104.020 E0.06083
G1 X173.812 Y105.906 E0.05912
G1 X173.703 Y107.010 E0.03478
G1 X173.327 Y108.876 E0.05969
G1 X173.028 Y109.849 E0.03192
G1 X172.336 Y111.520 E0.05671
G1 X171.331 Y113.273 E0.06335
G1 X170.722 Y114.116 E0.03261
G1 X169.527 Y115.479 E0.05683
G1 X168.000 Y116.824 E0.06380
G1 X131.327 Y140.461 E1.36800
G1 X128.794 Y141.714 E0.08860
G1 X127.368 Y142.254 E0.04781
G1 X124.636 Y142.990 E0.08871
G1 X123.132 Y143.242 E0.04781
G1 X120.309 Y143.430 E0.08871
G1 X118.785 Y143.384 E0.04782
G1 X115.979 Y143.018 E0.08871
G1 X114.472 Y142.669 E0.04850
G1 X111.748 Y141.743 E0.09020
G1 X109.206 Y140.493 E0.08883
G1 X107.855 Y139.654 E0.04987
G1 X105.620 Y137.936 E0.08837
G1 X79.079 Y112.112 E1.16109
G1 X78.253 Y111.165 E0.03939
G1 X77.512 Y110.055 E0.04185
G1 X76.929 Y108.873 E0.04133
G1 X76.502 Y107.612 E0.04173
G1 X76.248 Y106.330 E0.04098
G1 X76.159 Y104.999 E0.04185
G1 X76.245 Y103.687 E0.04120
G1 X76.508 Y102.367 E0.04221
G1 X76.932 Y101.120 E0.04128
G1 X77.541 Y99.895 E0.04290
G1 X100.641 Y62.303 E1.38342
G1 X101.231 Y61.689 E0.02667
G1 F8640
G1 X101.846 Y61.369 E-0.16022
G1 X102.476 Y61.270 E-0.14716
G1 X104.436 Y61.270 E-0.45262
G1 E-0.04000 F2100.00000
G1 Z0.800 F10800.000
G1 X88.648 Y98.040
G1 Z0.200
G1 E0.80000 F2100.00000
G1 F1200
G1 X89.098 Y98.209 E0.01507
G1 X89.545 Y98.413 E0.01541
G1 X89.961 Y98.635 E0.01477
G1 X90.369 Y98.889 E0.01508
G1 X90.760 Y99.169 E0.01508
G1 X91.132 Y99.474 E0.01508
G1 X91.483 Y99.803 E0.01508
G1 X91.812 Y100.154 E0.01508
G1 X92.117 Y100.526 E0.01508
G1 X92.397 Y100.916 E0.01508
G1 X92.651 Y101.325 E0.01508
G1 X92.873 Y101.740 E0.01477
G1 X93.076 Y102.188 E0.01541
G1 X93.246 Y102.637 E0.01507
G1 X93.385 Y103.098 E0.01508
G1 X93.494 Y103.566 E0.01508
G1 X93.573 Y104.041 E0.01508
G1 X93.620 Y104.519 E0.01508
G1 X93.636 Y105.000 E0.01508
G1 X93.620 Y105.481 E0.01508
G1 X93.573 Y105.959 E0.01508
G1 X93.494 Y106.434 E0.01508
G1 X93.385 Y106.902 E0.01508
G1 X93.246 Y107.363 E0.01508
G1 X93.076 Y107.813 E0.01508
G1 X92.878 Y108.251 E0.01508
G1 X92.651 Y108.675 E0.01508
G1 X92.397 Y109.084 E0.01508
G1 X92.117 Y109.474 E0.01508
G1 X91.812 Y109.846 E0.01508
G1 X91.483 Y110.197 E0.01508
G1 X91.132 Y110.526 E0.01508
G1 X90.760 Y110.831 E0.01508
G1 X90.369 Y111.111 E0.01508
G1 X89.961 Y111.365 E0.01508
G1 X89.536 Y111.592 E0.01508
G1 X89.099 Y111.790 E0.01507
G1 X88.639 Y111.963 E0.01541
G1 X88.188 Y112.100 E0.01477
G1 X87.719 Y112.209 E0.01508
G1 X87.245 Y112.287 E0.01508
G1 X86.766 Y112.334 E0.01508
G1 X86.286 Y112.350 E0.01507
G1 X85.795 Y112.333 E0.01541
G1 X85.326 Y112.287 E0.01477
G1 X84.852 Y112.209 E0.01508
G1 X84.383 Y112.100 E0.01508
G1 X83.923 Y111.960 E0.01508
G1 X83.473 Y111.791 E0.01507
G1 X83.026 Y111.587 E0.01541
G1 X82.610 Y111.365 E0.01477
G1 X82.202 Y111.111 E0.01508
G1 X81.811 Y110.831 E0.01508
G1 X81.439 Y110.526 E0.01508
G1 X81.088 Y110.197 E0.01508
G1 X80.759 Y109.846 E0.01508
G1 X80.461 Y109.482 E0.01477
G1 X80.174 Y109.083 E0.01541
G1 X79.920 Y108.675 E0.01507
G1 X79.693 Y108.251 E0.01508
G1 X79.495 Y107.813 E0.01508
G1 X79.325 Y107.363 E0.01508
G1 X79.186 Y106.902 E0.01508
G1 X79.077 Y106.434 E0.01508
G1 X78.998 Y105.959 E0.01508
G1 X78.951 Y105.481 E0.01508
G1 X78.935 Y105.000 E0.01508
G1 X78.951 Y104.519 E0.01508
G1 X78.997 Y104.051 E0.01477
G1 X79.077 Y103.566 E0.01541
G1 X79.186 Y103.098 E0.01507
G1 X79.325 Y102.637 E0.01508
G1 X79.495 Y102.187 E0.01508
G1 X79.693 Y101.749 E0.01508
G1 X79.920 Y101.325 E0.01508
G1 X80.174 Y100.916 E0.01508
G1 X80.454 Y100.526 E0.01508
G1 X80.759 Y100.154 E0.01508
G1 X81.088 Y99.803 E0.01508
G1 X81.439 Y99.474 E0.01508
G1 X81.811 Y99.169 E0.01508
G1 X82.202 Y98.889 E0.01508
G1 X82.610 Y98.635 E0.01508
G1 X83.035 Y98.408 E0.01508
G1 X83.472 Y98.210 E0.01507
G1 X83.932 Y98.037 E0.01541
G1 X84.383 Y97.900 E0.01477
G1 X84.852 Y97.791 E0.01508
G1 X85.326 Y97.713 E0.01508
G1 X85.804 Y97.666 E0.01507
G1 X86.295 Y97.650 E0.01541
G1 X86.766 Y97.666 E0.01477
G1 X87.245 Y97.713 E0.01508
G1 X87.719 Y97.791 E0.01508
G1 X88.188 Y97.900 E0.01508
G1 X88.591 Y98.023 E0.01320
G1 X88.700 Y97.662 F10800.000
G1 F1200
G1 X89.243 Y97.861 E0.01811
G1 X89.712 Y98.074 E0.01618
G1 X90.149 Y98.308 E0.01553
G1 X90.579 Y98.575 E0.01585
G1 X90.990 Y98.869 E0.01585
G1 X91.381 Y99.190 E0.01585
G1 X91.750 Y99.536 E0.01585
G1 X92.095 Y99.905 E0.01585
G1 X92.416 Y100.296 E0.01585
G1 X92.711 Y100.707 E0.01585
G1 X92.978 Y101.136 E0.01585
G1 X93.211 Y101.573 E0.01553
G1 X93.425 Y102.043 E0.01618
G1 X93.603 Y102.516 E0.01585
G1 X93.750 Y103.000 E0.01585
G1 X93.864 Y103.492 E0.01585
G1 X93.947 Y103.991 E0.01585
G1 X93.996 Y104.495 E0.01585
G1 X94.013 Y105.000 E0.01585
G1 X93.996 Y105.505 E0.01585
G1 X93.947 Y106.009 E0.01585
G1 X93.864 Y106.508 E0.01585
G1 X93.750 Y107.000 E0.01585
G1 X93.603 Y107.484 E0.01585
G1 X93.425 Y107.957 E0.01585
G1 X93.216 Y108.418 E0.01585
G1 X92.978 Y108.864 E0.01585
G1 X92.711 Y109.293 E0.01585
G1 X92.416 Y109.704 E0.01585
G1 X92.095 Y110.095 E0.01585
G1 X91.750 Y110.464 E0.01585
G1 X91.381 Y110.810 E0.01585
G1 X90.990 Y111.131 E0.01585
G1 X90.579 Y111.425 E0.01585
G1 X90.149 Y111.692 E0.01585
G1 X89.703 Y111.930 E0.01585
G1 X89.243 Y112.139 E0.01585
G1 X88.760 Y112.320 E0.01618
G1 X88.285 Y112.464 E0.01553
G1 X87.793 Y112.579 E0.01585
G1 X87.294 Y112.661 E0.01585
G1 X86.791 Y112.711 E0.01585
G1 X86.286 Y112.727 E0.01585
G1 X85.770 Y112.710 E0.01618
G1 X85.277 Y112.661 E0.01553
G1 X84.778 Y112.579 E0.01585
G1 X84.285 Y112.464 E0.01585
G1 X83.802 Y112.317 E0.01585
G1 X83.328 Y112.139 E0.01585
G1 X82.859 Y111.926 E0.01618
G1 X82.422 Y111.692 E0.01553
G1 X81.992 Y111.425 E0.01585
G1 X81.581 Y111.131 E0.01585
G1 X81.190 Y110.810 E0.01585
G1 X80.821 Y110.464 E0.01585
G1 X80.476 Y110.095 E0.01585
G1 X80.161 Y109.712 E0.01553
G1 X79.860 Y109.293 E0.01618
G1 X79.593 Y108.864 E0.01585
G1 X79.355 Y108.418 E0.01585
G1 X79.146 Y107.957 E0.01585
G1 X78.968 Y107.484 E0.01585
G1 X78.821 Y107.000 E0.01585
G1 X78.707 Y106.508 E0.01585
G1 X78.624 Y106.009 E0.01585
G1 X78.575 Y105.505 E0.01585
G1 X78.558 Y105.000 E0.01585
G1 X78.575 Y104.495 E0.01585
G1 X78.623 Y104.002 E0.01553
G1 X78.707 Y103.492 E0.01618
G1 X78.821 Y103.000 E0.01585
G1 X78.968 Y102.516 E0.01585
G1 X79.146 Y102.043 E0.01585
G1 X79.355 Y101.582 E0.01585
G1 X79.593 Y101.136 E0.01585
G1 X79.860 Y100.707 E0.01585
G1 X80.155 Y100.296 E0.01585
G1 X80.476 Y99.905 E0.01585
G1 X80.821 Y99.536 E0.01585
G1 X81.190 Y99.190 E0.01585
G1 X81.581 Y98.869 E0.01585
G1 X81.992 Y98.575 E0.01585
G1 X82.422 Y98.308 E0.01585
G1 X82.868 Y98.070 E0.01585
G1 X83.328 Y97.861 E0.01585
G1 X83.811 Y97.680 E0.01618
G1 X84.285 Y97.536 E0.01553
G1 X84.778 Y97.421 E0.01585
G1 X85.277 Y97.339 E0.01585
G1 X85.780 Y97.289 E0.01585
G1 X86.296 Y97.273 E0.01618
G1 X86.791 Y97.289 E0.01553
G1 X87.294 Y97.339 E0.01585
G1 X87.793 Y97.421 E0.01585
G1 X88.285 Y97.536 E0.01585
G1 X88.643 Y97.644 E0.01171
G1 X88.781 Y98.054 F10800.000
G1 F8640
G1 X89.243 Y97.861 E-0.14724
G1 X89.712 Y98.074 E-0.11915
G1 X90.149 Y98.308 E-0.11439
G1 X90.579 Y98.575 E-0.11676
G1 X90.990 Y98.869 E-0.11676
G1 X91.381 Y99.190 E-0.11676
G1 X91.472 Y99.276 E-0.02894
G1 E-0.04000 F2100.00000
G1 Z0.800 F10800.000
G1 X90.182 Y98.906
G1 Z0.200
G1 E0.80000 F2100.00000
G1 F1200
G1 X92.380 Y101.103 E0.09867
G1 F8640
G1 X90.182 Y98.906 E-0.71751
G1 E-0.08249 F2100.00000
G1 Z0.800 F10800.000
G1 X92.974 Y102.238
G1 Z0.200
G1 E0.80000 F2100.00000
G1 F1200
G1 X89.389 Y98.652 E0.16102
G1 X88.989 Y98.471 E0.01393
G1 X88.481 Y98.285 E0.01718
G1 X93.001 Y102.804 E0.20294
G1 X93.112 Y103.171 E0.01217
G1 X93.198 Y103.542 E0.01210
G1 X87.744 Y98.087 E0.24496
G1 X87.099 Y97.983 E0.02074
G1 X93.303 Y104.187 E0.27860
G1 X93.345 Y104.769 E0.01854
G1 X86.517 Y97.940 E0.30664
G1 X85.979 Y97.943 E0.01706
G1 X93.343 Y105.306 E0.33066
G1 X93.304 Y105.807 E0.01596
G1 X85.478 Y97.982 E0.35141
G1 X85.008 Y98.052 E0.01509
G1 X93.234 Y106.277 E0.36938
G1 X93.137 Y106.721 E0.01441
G1 X84.564 Y98.148 E0.38497
G1 X84.144 Y98.268 E0.01387
G1 X93.017 Y107.141 E0.39845
G1 X92.876 Y107.540 E0.01344
G1 X83.745 Y98.409 E0.41005
G1 X83.365 Y98.569 E0.01310
G1 X92.717 Y107.921 E0.41997
G1 X92.539 Y108.284 E0.01282
G1 X83.002 Y98.746 E0.42830
G1 X82.655 Y98.940 E0.01260
G1 X92.346 Y108.630 E0.43516
G1 X92.137 Y108.961 E0.01243
G1 X82.324 Y99.149 E0.44064
G1 X82.010 Y99.374 E0.01229
G1 X91.911 Y109.276 E0.44464
G1 X91.669 Y109.574 E0.01219
G1 X81.712 Y99.616 E0.44717
G1 X81.428 Y99.872 E0.01214
G1 X91.413 Y109.858 E0.44842
G1 X91.143 Y110.128 E0.01213
G1 X81.158 Y100.142 E0.44842
G1 X80.902 Y100.426 E0.01214
G1 X90.859 Y110.384 E0.44717
G1 X90.561 Y110.626 E0.01219
G1 X80.660 Y100.724 E0.44464
G1 X80.434 Y101.039 E0.01229
G1 X90.246 Y110.851 E0.44064
G1 X89.916 Y111.060 E0.01243
G1 X80.225 Y101.370 E0.43516
G1 X80.032 Y101.716 E0.01260
G1 X89.569 Y111.254 E0.42830
G1 X89.206 Y111.431 E0.01282
G1 X79.854 Y102.079 E0.41997
G1 X79.695 Y102.460 E0.01310
G1 X88.826 Y111.591 E0.41005
G1 X88.427 Y111.732 E0.01344
G1 X79.554 Y102.859 E0.39845
G1 X79.434 Y103.279 E0.01388
G1 X88.006 Y111.852 E0.38496
G1 X87.563 Y111.948 E0.01441
G1 X79.338 Y103.723 E0.36937
G1 X79.267 Y104.193 E0.01509
G1 X87.093 Y112.018 E0.35141
G1 X86.592 Y112.057 E0.01596
G1 X79.228 Y104.694 E0.33067
G1 X79.226 Y105.231 E0.01707
G1 X86.054 Y112.059 E0.30662
G1 X85.472 Y112.017 E0.01852
G1 X79.268 Y105.814 E0.27859
G1 X79.373 Y106.458 E0.02074
G1 X84.827 Y111.913 E0.24495
G1 X84.456 Y111.826 E0.01209
G1 X84.089 Y111.715 E0.01218
G1 X79.570 Y107.196 E0.20293
G1 X79.756 Y107.704 E0.01719
G1 X79.936 Y108.102 E0.01386
G1 X83.523 Y111.689 E0.16106
G1 F8640
G1 X81.196 Y109.361 E-0.76000
G1 E-0.04000 F2100.00000
G1 Z0.800 F10800.000
G1 X82.388 Y111.094
G1 Z0.200
G1 E0.80000 F2100.00000
G1 F1200
G1 X80.191 Y108.897 E0.09865
G1 F8640
G1 X82.388 Y111.094 E-0.71736
G1 E-0.08264 F2100.00000
G1 Z0.800 F10800.000
G1 X102.500 Y75.924
G1 Z0.200
G1 E0.80000 F2100.00000
G1 F1200
G1 X102.500 Y63.458 E0.39086
G1 X103.254 Y63.458 E0.02365
G1 X103.254 Y75.754 E0.38554
G1 X104.008 Y75.754 E0.02365
G1 X104.008 Y63.458 E0.38554
G1 X104.762 Y63.458 E0.02365
G1 X104.762 Y75.754 E0.38554
G1 X105.517 Y75.754 E0.02365
G1 X105.517 Y63.458 E0.38554
G1 X106.271 Y63.458 E0.02365
G1 X106.271 Y75.754 E0.38554
G1 X107.025 Y75.754 E0.02365
G1 X107.025 Y63.458 E0.38554
G1 X107.779 Y63.458 E0.02365
G1 X107.779 Y75.754 E0.38554
G1 X108.533 Y75.754 E0.02365
G1 X108.533 Y63.458 E0.38554
G1 X109.287 Y63.458 E0.02365
G1 X109.287 Y75.754 E0.38554
G1 X110.042 Y75.754 E0.02365
G1 X110.042 Y63.458 E0.38554
G1 X110.796 Y63.458 E0.02365
G1 X110.796 Y75.754 E0.38554
G1 X111.550 Y75.754 E0.02365
G1 X111.550 Y63.458 E0.38554
G1 X112.304 Y63.458 E0.02365
G1 X112.304 Y75.924 E0.39086
G1 F8640
G1 X112.304 Y72.632 E-0.76000
G1 E-0.04000 F2100.00000
G1 Z0.800 F10800.000
G1 X127.387 Y75.924
G1 Z0.200
G1 E0.80000 F2100.00000
G1 F1200
G1 X127.387 Y63.458 E0.39086
G1 X128.141 Y63.458 E0.02365
G1 X128.141 Y75.754 E0.38554
G1 X128.896 Y75.754 E0.02365
G1 X128.896 Y63.458 E0.38554
G1 X129.650 Y63.458 E0.02365
G1 X129.650 Y75.754 E0.38554
G1 X130.404 Y75.754 E0.02365
G1 X130.404 Y63.458 E0.38554
G1 X131.158 Y63.458 E0.02365
G1 X131.158 Y75.754 E0.38554
M73 Q2 S44
G1 X131.912 Y75.754 E0.02365
G1 X131.912 Y63.458 E0.38554
M73 P2 R44
G1 X132.666 Y63.458 E0.02365
G1 X132.666 Y75.754 E0.38554
G1 X133.420 Y75.754 E0.02365
G1 X133.420 Y63.458 E0.38554
G1 X134.175 Y63.458 E0.02365
G1 X134.175 Y75.754 E0.38554
G1 X134.929 Y75.754 E0.02365
G1 X134.929 Y63.458 E0.38554
G1 X135.683 Y63.458 E0.02365
G1 X135.683 Y75.754 E0.38554
G1 X136.437 Y75.754 E0.02365
G1 X136.437 Y63.458 E0.38554
G1 X137.191 Y63.458 E0.02365
G1 X137.191 Y75.924 E0.39086
G1 F8640
G1 X137.191 Y72.632 E-0.76000
G1 E-0.04000 F2100.00000
G1 Z0.800 F10800.000
G1 X121.035 Y118.255
G1 Z0.200
G1 E0.80000 F2100.00000
G1 F1200
G1 X121.784 Y118.565 E0.02539
G1 X122.426 Y119.058 E0.02539
G1 X122.925 Y119.719 E0.02597
G1 X123.224 Y120.442 E0.02455
G1 X123.330 Y121.243 E0.02531
G1 X123.224 Y122.043 E0.02531
G1 X122.915 Y122.789 E0.02531
G1 X122.424 Y123.429 E0.02531
G1 X121.784 Y123.921 E0.02531
G1 X121.038 Y124.230 E0.02531
G1 X120.237 Y124.335 E0.02531
G1 X119.437 Y124.230 E0.02531
G1 X118.691 Y123.921 E0.02531
G1 X118.051 Y123.429 E0.02531
G1 X117.560 Y122.789 E0.02531
G1 X117.251 Y122.043 E0.02531
G1 X117.145 Y121.243 E0.02531
G1 X117.251 Y120.442 E0.02531
G1 X117.550 Y119.719 E0.02455
G1 X118.049 Y119.058 E0.02597
G1 X118.691 Y118.565 E0.02539
G1 X119.437 Y118.256 E0.02531
G1 X120.213 Y118.154 E0.02455
G1 X120.976 Y118.248 E0.02409
G1 X120.930 Y118.622 F10800.000
G1 F1200
G1 X121.593 Y118.894 E0.02249
G1 X122.156 Y119.326 E0.02222
G1 X122.595 Y119.908 E0.02286
G1 X122.857 Y120.541 E0.02149
G1 X122.949 Y121.243 E0.02220
G1 X122.857 Y121.945 E0.02220
G1 X122.586 Y122.599 E0.02220
G1 X122.155 Y123.160 E0.02220
G1 X121.593 Y123.591 E0.02220
G1 X120.939 Y123.862 E0.02220
G1 X120.237 Y123.955 E0.02220
G1 X119.536 Y123.862 E0.02220
G1 X118.882 Y123.591 E0.02220
G1 X118.320 Y123.160 E0.02220
G1 X117.889 Y122.599 E0.02220
G1 X117.618 Y121.945 E0.02220
G1 X117.526 Y121.243 E0.02220
G1 X117.618 Y120.541 E0.02220
G1 X117.880 Y119.908 E0.02149
G1 X118.319 Y119.326 E0.02286
G1 X118.882 Y118.894 E0.02222
G1 X119.536 Y118.623 E0.02220
G1 X120.215 Y118.534 E0.02149
G1 X120.870 Y118.615 E0.02070
G1 X121.212 Y118.338 F10800.000
G1 F8640
G1 X121.593 Y118.894 E-0.17902
G1 X122.156 Y119.326 E-0.16367
G1 X122.595 Y119.908 E-0.16832
G1 X122.857 Y120.541 E-0.15823
G1 X122.908 Y120.931 E-0.09076
G1 E-0.04000 F2100.00000
G1 Z0.800 F10800.000
G1 X100.825 Y76.830
G1 Z0.200
G1 E0.80000 F2100.00000
G1 F1200
G1 X139.650 Y76.830 E1.21736
G1 X139.650 Y121.233 E1.39223
G1 X139.609 Y122.512 E0.04013
G1 X139.484 Y123.777 E0.03983
G1 X139.277 Y125.030 E0.03983
G1 X138.989 Y126.267 E0.03983
G1 X138.632 Y127.442 E0.03848
G1 X138.172 Y128.672 E0.04120
G1 X137.648 Y129.829 E0.03981
G1 X137.049 Y130.949 E0.03983
G1 X136.378 Y132.028 E0.03983
G1 X135.639 Y133.060 E0.03983
G1 X134.860 Y134.009 E0.03848
G1 X133.964 Y134.970 E0.04120
G1 X133.037 Y135.838 E0.03981
G1 X132.055 Y136.644 E0.03983
G1 X131.023 Y137.383 E0.03981
G1 X129.906 Y138.075 E0.04120
G1 X128.823 Y138.653 E0.03848
G1 X127.666 Y139.178 E0.03983
