; generated by PrusaSlicer 2.1.1+ on 2020-02-15 at 04:40:58 UTC

; 

; external perimeters extrusion width = 0.60mm
; perimeters extrusion width = 0.50mm
; infill extrusion width = 0.50mm
; solid infill extrusion width = 0.50mm
; top infill extrusion width = 0.45mm
; support material extrusion width = 0.38mm
; first layer extrusion width = 0.42mm

M73 P0 R105
M73 Q0 S107
M201 X1000 Y1000 Z1000 E5000 ; sets maximum accelerations, mm/sec^2
M203 X200 Y200 Z12 E120 ; sets maximum feedrates, mm/sec
M204 P1250 R1250 T1250 ; sets acceleration (P, T) and retract acceleration (R), mm/sec^2
M205 X8.00 Y8.00 Z0.40 E4.50 ; sets the jerk limits, mm/sec
M205 S0 T0 ; sets the minimum extruding and travel feed rate, mm/sec
M107
M862.3 P "MK3S" ; printer model check
M862.1 P0.4 ; nozzle diameter check
M115 U3.8.1 ; tell printer latest fw version
G90 ; use absolute coordinates
M83 ; extruder relative mode
M104 S215 ; set extruder temp
M140 S60 ; set bed temp
M190 S60 ; wait for bed temp
M109 S215 ; wait for extruder temp
G28 W ; home all without mesh bed level
G80 ; mesh bed leveling
G1 Y-3.0 F1000.0 ; go outside print area
G92 E0.0
G1 X60.0 E9.0 F1000.0 ; intro line
M73 Q0 S107
M73 P0 R105
G1 X100.0 E12.5 F1000.0 ; intro line
G92 E0.0
M221 S95
G21 ; set units to millimeters
G90 ; use absolute coordinates
M83 ; use relative distances for extrusion
M900 K30 ; Filament gcode
;BEFORE_LAYER_CHANGE
G92 E0.0
;0.2


G1 E-0.80000 F2100.00000
G1 Z0.600 F10800.000
;AFTER_LAYER_CHANGE
;0.2
G1 X132.630 Y22.128
G1 Z0.200
G1 E0.80000 F2100.00000
M204 S1000
G1 F1200
G1 X133.308 Y22.012 E0.02157
G1 X168.030 Y22.012 E1.08865
G1 X168.695 Y22.117 E0.02112
G1 X169.294 Y22.417 E0.02100
G1 X169.776 Y22.887 E0.02112
G1 X170.092 Y23.478 E0.02100
G1 X173.260 Y36.941 E0.43368
G1 X173.260 Y160.537 E3.87524
G1 X173.078 Y163.332 E0.08784
G1 X172.819 Y164.899 E0.04978
G1 X172.083 Y167.634 E0.08881
G1 X170.998 Y170.259 E0.08906
G1 X169.524 Y172.822 E0.09272
G1 X167.801 Y175.075 E0.08894
G1 X166.710 Y176.239 E0.05001
G1 X164.526 Y178.143 E0.09086
G1 X162.165 Y179.717 E0.08894
G1 X159.562 Y181.000 E0.09100
G1 X156.817 Y181.932 E0.09089
G1 X153.974 Y182.498 E0.09089
G1 X151.078 Y182.689 E0.09100
G1 X103.685 Y182.644 E1.48597
G1 X102.109 Y182.489 E0.04965
G1 X99.335 Y181.934 E0.08871
G1 X97.876 Y181.488 E0.04782
G1 X95.313 Y180.426 E0.08700
G1 X92.805 Y178.988 E0.09066
G1 X91.512 Y178.062 E0.04987
G1 X89.381 Y176.189 E0.08894
G1 X87.470 Y174.009 E0.09089
G1 X85.857 Y171.596 E0.09100
G1 X84.601 Y169.057 E0.08883
G1 X84.040 Y167.568 E0.04987
G1 X83.307 Y164.817 E0.08929
G1 X82.936 Y162.012 E0.08871
G1 X76.777 Y94.883 E2.11360
G1 X76.775 Y93.544 E0.04199
G1 X76.947 Y92.238 E0.04130
G1 X77.289 Y90.958 E0.04156
G1 X77.772 Y89.780 E0.03990
G1 X78.147 Y89.080 E0.02492
G1 X78.873 Y88.007 E0.04061
G1 X131.633 Y22.824 E2.62938
G1 X132.019 Y22.452 E0.01680
G1 X132.577 Y22.157 E0.01980
G1 F8640
G1 X133.308 Y22.012 E-0.17206
G1 X135.855 Y22.012 E-0.58794
G1 E-0.04000 F2100.00000
G1 Z0.800 F10800.000
G1 X133.335 Y115.181
G1 Z0.200
G1 E0.80000 F2100.00000
G1 F1200
G1 X133.335 Y102.715 E0.39086
G1 X134.089 Y102.715 E0.02365
G1 X134.089 Y115.011 E0.38554
G1 X134.843 Y115.011 E0.02365
G1 X134.843 Y102.715 E0.38554
G1 X135.597 Y102.715 E0.02365
G1 X135.597 Y115.011 E0.38554
G1 X136.351 Y115.011 E0.02365
G1 X136.351 Y102.715 E0.38554
G1 X137.105 Y102.715 E0.02365
G1 X137.105 Y115.011 E0.38554
G1 X137.859 Y115.011 E0.02365
G1 X137.859 Y102.715 E0.38554
G1 X138.614 Y102.715 E0.02365
G1 X138.614 Y115.011 E0.38554
G1 X139.368 Y115.011 E0.02365
G1 X139.368 Y102.715 E0.38554
G1 X140.122 Y102.715 E0.02365
G1 X140.122 Y115.011 E0.38554
G1 X140.876 Y115.011 E0.02365
G1 X140.876 Y102.715 E0.38554
G1 X141.630 Y102.715 E0.02365
G1 X141.630 Y115.011 E0.38554
G1 X142.384 Y115.011 E0.02365
G1 X142.384 Y102.715 E0.38554
G1 X143.139 Y102.715 E0.02365
G1 X143.139 Y115.181 E0.39086
G1 F8640
G1 X143.139 Y111.890 E-0.76000
G1 E-0.04000 F2100.00000
G1 Z0.800 F10800.000
G1 X158.222 Y115.181
G1 Z0.200
G1 E0.80000 F2100.00000
G1 F1200
G1 X158.222 Y102.715 E0.39086
G1 X158.976 Y102.715 E0.02365
G1 X158.976 Y115.011 E0.38554
G1 X159.730 Y115.011 E0.02365
G1 X159.730 Y102.715 E0.38554
G1 X160.484 Y102.715 E0.02365
G1 X160.484 Y115.011 E0.38554
G1 X161.238 Y115.011 E0.02365
G1 X161.238 Y102.715 E0.38554
G1 X161.993 Y102.715 E0.02365
G1 X161.993 Y115.011 E0.38554
G1 X162.747 Y115.011 E0.02365
G1 X162.747 Y102.715 E0.38554
G1 X163.501 Y102.715 E0.02365
G1 X163.501 Y115.011 E0.38554
G1 X164.255 Y115.011 E0.02365
G1 X164.255 Y102.715 E0.38554
G1 X165.009 Y102.715 E0.02365
G1 X165.009 Y115.011 E0.38554
G1 X165.763 Y115.011 E0.02365
G1 X165.763 Y102.715 E0.38554
G1 X166.518 Y102.715 E0.02365
G1 X166.518 Y115.011 E0.38554
G1 X167.272 Y115.011 E0.02365
G1 X167.272 Y102.715 E0.38554
G1 X168.026 Y102.715 E0.02365
G1 X168.026 Y115.181 E0.39086
G1 F8640
G1 X168.026 Y111.890 E-0.76000
G1 E-0.04000 F2100.00000
G1 Z0.800 F10800.000
G1 X151.870 Y157.512
G1 Z0.200
G1 E0.80000 F2100.00000
G1 F1200
G1 X152.618 Y157.822 E0.02539
G1 X153.261 Y158.315 E0.02539
G1 X153.759 Y158.976 E0.02597
G1 X154.059 Y159.700 E0.02455
G1 X154.164 Y160.500 E0.02531
G1 X154.059 Y161.300 E0.02531
G1 X153.750 Y162.046 E0.02531
G1 X153.259 Y162.686 E0.02531
G1 X152.618 Y163.178 E0.02531
G1 X151.872 Y163.487 E0.02531
G1 X151.072 Y163.592 E0.02531
G1 X150.272 Y163.487 E0.02531
G1 X149.526 Y163.178 E0.02531
G1 X148.886 Y162.686 E0.02531
G1 X148.394 Y162.046 E0.02531
G1 X148.085 Y161.300 E0.02531
G1 X147.980 Y160.500 E0.02531
G1 X148.085 Y159.700 E0.02531
G1 X148.385 Y158.976 E0.02455
G1 X148.884 Y158.315 E0.02597
G1 X149.526 Y157.822 E0.02539
G1 X150.272 Y157.513 E0.02531
G1 X151.048 Y157.411 E0.02455
G1 X151.811 Y157.505 E0.02409
G1 X151.764 Y157.879 F10800.000
G1 F1200
G1 X152.428 Y158.152 E0.02249
G1 X152.990 Y158.583 E0.02222
G1 X153.429 Y159.165 E0.02286
G1 X153.691 Y159.798 E0.02149
G1 X153.784 Y160.500 E0.02220
G1 X153.691 Y161.202 E0.02220
G1 X153.421 Y161.856 E0.02220
G1 X152.990 Y162.418 E0.02220
G1 X152.428 Y162.848 E0.02220
G1 X151.774 Y163.119 E0.02220
G1 X151.072 Y163.212 E0.02220
G1 X150.370 Y163.119 E0.02220
G1 X149.716 Y162.848 E0.02220
G1 X149.155 Y162.418 E0.02220
G1 X148.724 Y161.856 E0.02220
G1 X148.453 Y161.202 E0.02220
G1 X148.360 Y160.500 E0.02220
G1 X148.453 Y159.798 E0.02220
G1 X148.715 Y159.165 E0.02149
G1 X149.154 Y158.583 E0.02286
G1 X149.716 Y158.152 E0.02222
G1 X150.370 Y157.881 E0.02220
G1 X151.050 Y157.791 E0.02149
G1 X151.705 Y157.872 E0.02070
G1 X152.047 Y157.596 F10800.000
G1 F8640
G1 X152.428 Y158.152 E-0.17902
G1 X152.990 Y158.583 E-0.16367
G1 X153.429 Y159.165 E-0.16832
G1 X153.691 Y159.798 E-0.15823
G1 X153.743 Y160.188 E-0.09076
G1 E-0.04000 F2100.00000
G1 Z0.800 F10800.000
G1 X131.659 Y116.087
G1 Z0.200
G1 E0.80000 F2100.00000
G1 F1200
G1 X170.485 Y116.087 E1.21736
G1 X170.485 Y160.490 E1.39223
G1 X170.443 Y161.770 E0.04013
G1 X170.319 Y163.034 E0.03983
G1 X170.112 Y164.287 E0.03983
G1 X169.823 Y165.524 E0.03983
G1 X169.467 Y166.699 E0.03848
G1 X169.007 Y167.929 E0.04120
G1 X168.483 Y169.086 E0.03981
G1 X167.884 Y170.206 E0.03983
G1 X167.213 Y171.285 E0.03983
G1 X166.473 Y172.318 E0.03983
G1 X165.695 Y173.266 E0.03848
G1 X164.798 Y174.227 E0.04120
G1 X163.872 Y175.095 E0.03981
G1 X162.890 Y175.901 E0.03983
G1 X161.858 Y176.641 E0.03981
G1 X160.740 Y177.332 E0.04120
G1 X159.658 Y177.911 E0.03848
G1 X158.501 Y178.435 E0.03983
G1 X157.312 Y178.882 E0.03983
G1 X156.096 Y179.251 E0.03983
G1 X154.859 Y179.540 E0.03983
G1 X153.606 Y179.747 E0.03983
G1 X152.342 Y179.871 E0.03983
G1 X151.072 Y179.913 E0.03983
G1 X149.802 Y179.871 E0.03983
G1 X148.538 Y179.747 E0.03983
G1 X147.285 Y179.540 E0.03983
G1 X146.048 Y179.251 E0.03983
G1 X144.832 Y178.882 E0.03983
G1 X143.643 Y178.435 E0.03983
G1 X142.487 Y177.911 E0.03981
G1 X141.329 Y177.289 E0.04120
G1 X140.287 Y176.641 E0.03848
G1 X139.254 Y175.901 E0.03983
G1 X138.272 Y175.095 E0.03983
G1 X137.345 Y174.227 E0.03983
G1 X136.477 Y173.300 E0.03983
G1 X135.671 Y172.318 E0.03983
G1 X134.931 Y171.285 E0.03983
G1 X134.260 Y170.206 E0.03983
G1 X133.661 Y169.086 E0.03983
G1 X133.137 Y167.929 E0.03983
G1 X132.690 Y166.740 E0.03983
G1 X132.321 Y165.524 E0.03983
G1 X132.042 Y164.329 E0.03848
G1 X131.825 Y163.033 E0.04120
G1 X131.701 Y161.770 E0.03981
G1 X131.659 Y160.490 E0.04013
G1 X131.659 Y116.147 E1.39035
G1 X131.282 Y115.710 F10800.000
G1 F1200
G1 X170.862 Y115.710 E1.24100
M73 Q1 S106
M73 P1 R104
G1 X170.862 Y160.497 E1.40425
G1 X170.820 Y161.794 E0.04071
G1 X170.693 Y163.083 E0.04060
G1 X170.482 Y164.361 E0.04060
G1 X170.188 Y165.622 E0.04060
G1 X169.824 Y166.820 E0.03924
G1 X169.355 Y168.073 E0.04197
G1 X168.821 Y169.253 E0.04060
G1 X168.211 Y170.395 E0.04060
G1 X167.527 Y171.495 E0.04060
G1 X166.772 Y172.547 E0.04060
G1 X165.978 Y173.515 E0.03924
G1 X165.065 Y174.494 E0.04197
G1 X164.120 Y175.379 E0.04060
G1 X163.119 Y176.200 E0.04060
G1 X162.067 Y176.955 E0.04060
G1 X160.929 Y177.659 E0.04197
G1 X159.825 Y178.249 E0.03924
G1 X158.645 Y178.783 E0.04060
G1 X157.433 Y179.240 E0.04060
G1 X156.194 Y179.616 E0.04060
G1 X154.933 Y179.910 E0.04060
G1 X153.655 Y180.121 E0.04060
G1 X152.366 Y180.248 E0.04060
G1 X151.072 Y180.290 E0.04060
G1 X149.778 Y180.248 E0.04060
G1 X148.489 Y180.121 E0.04060
G1 X147.211 Y179.910 E0.04060
G1 X145.950 Y179.616 E0.04060
G1 X144.711 Y179.240 E0.04060
G1 X143.499 Y178.783 E0.04060
G1 X142.319 Y178.249 E0.04060
G1 X141.140 Y177.616 E0.04197
G1 X140.077 Y176.955 E0.03924
G1 X139.025 Y176.200 E0.04060
G1 X138.024 Y175.379 E0.04060
G1 X137.079 Y174.494 E0.04060
G1 X136.193 Y173.548 E0.04060
G1 X135.372 Y172.547 E0.04060
G1 X134.617 Y171.495 E0.04060
G1 X133.934 Y170.395 E0.04060
G1 X133.323 Y169.253 E0.04060
G1 X132.789 Y168.073 E0.04060
G1 X132.332 Y166.861 E0.04060
G1 X131.957 Y165.622 E0.04060
G1 X131.672 Y164.403 E0.03924
G1 X131.451 Y163.083 E0.04197
G1 X131.325 Y161.794 E0.04060
G1 X131.282 Y160.497 E0.04071
G1 X131.282 Y115.770 E1.40237
G1 X131.629 Y115.910 F10800.000
G1 F8640
G1 X134.573 Y115.765 E-0.76000
G1 E-0.04000 F2100.00000
G1 Z0.800 F10800.000
G1 X170.372 Y116.965
G1 Z0.200
G1 E0.80000 F2100.00000
G1 F1200
G1 X169.777 Y116.370 E0.02648
G1 X169.242 Y116.370 E0.01683
G1 X170.202 Y117.330 E0.04274
G1 X170.202 Y117.866 E0.01683
G1 X168.707 Y116.370 E0.06654
G1 X168.172 Y116.370 E0.01683
G1 X170.202 Y118.401 E0.09034
G1 X170.202 Y118.936 E0.01683
G1 X167.636 Y116.370 E0.11415
G1 X167.101 Y116.370 E0.01683
G1 X170.202 Y119.471 E0.13795
G1 X170.202 Y120.006 E0.01683
G1 X166.566 Y116.370 E0.16175
G1 X166.031 Y116.370 E0.01683
G1 X170.202 Y120.541 E0.18556
G1 X170.202 Y121.076 E0.01683
G1 X165.496 Y116.370 E0.20936
G1 X164.961 Y116.370 E0.01683
G1 X170.202 Y121.611 E0.23317
G1 X170.202 Y122.146 E0.01683
G1 X164.426 Y116.370 E0.25697
G1 X163.891 Y116.370 E0.01683
G1 X170.202 Y122.681 E0.28077
G1 X170.202 Y123.216 E0.01683
G1 X163.356 Y116.370 E0.30458
G1 X162.821 Y116.370 E0.01683
G1 X170.202 Y123.751 E0.32838
G1 X170.202 Y124.286 E0.01683
G1 X162.286 Y116.370 E0.35218
G1 X161.751 Y116.370 E0.01683
G1 X170.202 Y124.821 E0.37599
G1 X170.202 Y125.356 E0.01683
G1 X161.216 Y116.370 E0.39979
G1 X160.681 Y116.370 E0.01683
G1 X170.202 Y125.891 E0.42359
G1 X170.202 Y126.426 E0.01683
G1 X160.146 Y116.370 E0.44740
G1 X159.611 Y116.370 E0.01683
G1 X170.202 Y126.961 E0.47120
G1 X170.202 Y127.496 E0.01683
G1 X159.076 Y116.370 E0.49500
G1 X158.541 Y116.370 E0.01683
G1 X170.202 Y128.031 E0.51881
G1 X170.202 Y128.566 E0.01683
G1 X158.006 Y116.370 E0.54261
G1 X157.471 Y116.370 E0.01683
G1 X170.202 Y129.101 E0.56642
G1 X170.202 Y129.636 E0.01683
G1 X156.936 Y116.370 E0.59022
G1 X156.401 Y116.370 E0.01683
G1 X170.202 Y130.172 E0.61402
G1 X170.202 Y130.707 E0.01683
G1 X155.866 Y116.370 E0.63783
G1 X155.330 Y116.370 E0.01683
G1 X170.202 Y131.242 E0.66163
G1 X170.202 Y131.777 E0.01683
G1 X154.795 Y116.370 E0.68543
G1 X154.260 Y116.370 E0.01683
G1 X170.202 Y132.312 E0.70924
G1 X170.202 Y132.847 E0.01683
G1 X153.725 Y116.370 E0.73304
G1 X153.190 Y116.370 E0.01683
G1 X170.202 Y133.382 E0.75684
G1 X170.202 Y133.917 E0.01683
G1 X152.655 Y116.370 E0.78065
G1 X152.120 Y116.370 E0.01683
G1 X170.202 Y134.452 E0.80445
G1 X170.202 Y134.987 E0.01683
G1 X151.585 Y116.370 E0.82825
G1 X151.050 Y116.370 E0.01683
G1 X170.202 Y135.522 E0.85206
G1 X170.202 Y136.057 E0.01683
G1 X150.515 Y116.370 E0.87586
G1 X149.980 Y116.370 E0.01683
G1 X170.202 Y136.592 E0.89967
G1 X170.202 Y137.127 E0.01683
G1 X149.445 Y116.370 E0.92347
G1 X148.910 Y116.370 E0.01683
G1 X170.202 Y137.662 E0.94727
G1 X170.202 Y138.197 E0.01683
G1 X148.375 Y116.370 E0.97108
G1 X147.840 Y116.370 E0.01683
G1 X170.202 Y138.732 E0.99488
G1 X170.202 Y139.267 E0.01683
G1 X147.305 Y116.370 E1.01868
G1 X146.770 Y116.370 E0.01683
G1 X170.202 Y139.802 E1.04249
G1 X170.202 Y140.337 E0.01683
G1 X146.235 Y116.370 E1.06629
G1 X145.700 Y116.370 E0.01683
G1 X170.202 Y140.872 E1.09009
G1 X170.202 Y141.407 E0.01683
G1 X145.165 Y116.370 E1.11390
G1 X144.630 Y116.370 E0.01683
G1 X170.202 Y141.942 E1.13770
G1 X170.202 Y142.478 E0.01683
G1 X144.095 Y116.370 E1.16151
G1 X143.560 Y116.370 E0.01683
G1 X170.202 Y143.013 E1.18531
G1 X170.202 Y143.548 E0.01683
G1 X143.024 Y116.370 E1.20911
M73 Q1 S105
G1 X142.489 Y116.370 E0.01683
G1 X170.202 Y144.083 E1.23292
M73 P1 R103
G1 X170.202 Y144.618 E0.01683
G1 X141.954 Y116.370 E1.25672
G1 X141.419 Y116.370 E0.01683
G1 X170.202 Y145.153 E1.28052
G1 X170.202 Y145.688 E0.01683
G1 X140.884 Y116.370 E1.30433
G1 X140.349 Y116.370 E0.01683
G1 X170.202 Y146.223 E1.32813
G1 X170.202 Y146.758 E0.01683
G1 X139.814 Y116.370 E1.35193
G1 X139.279 Y116.370 E0.01683
G1 X170.202 Y147.293 E1.37574
G1 X170.202 Y147.828 E0.01683
G1 X138.744 Y116.370 E1.39954
G1 X138.209 Y116.370 E0.01683
G1 X170.202 Y148.363 E1.42334
G1 X170.202 Y148.898 E0.01683
G1 X137.674 Y116.370 E1.44715
G1 X137.139 Y116.370 E0.01683
G1 X170.202 Y149.433 E1.47095
G1 X170.202 Y149.968 E0.01683
G1 X136.604 Y116.370 E1.49476
G1 X136.069 Y116.370 E0.01683
G1 X170.202 Y150.503 E1.51856
G1 X170.202 Y151.038 E0.01683
G1 X135.534 Y116.370 E1.54236
G1 X134.999 Y116.370 E0.01683
G1 X170.202 Y151.573 E1.56617
G1 X170.202 Y152.108 E0.01683
G1 X134.464 Y116.370 E1.58997
G1 X133.929 Y116.370 E0.01683
G1 X170.202 Y152.643 E1.61377
G1 X170.202 Y153.178 E0.01683
G1 X133.394 Y116.370 E1.63758
G1 X132.859 Y116.370 E0.01683
G1 X170.202 Y153.713 E1.66138
G1 X170.202 Y154.248 E0.01683
G1 X132.324 Y116.370 E1.68518
G1 X131.942 Y116.370 E0.01201
G1 X131.942 Y116.523 E0.00483
G1 X170.202 Y154.784 E1.70216
G1 X170.202 Y155.319 E0.01683
G1 X131.942 Y117.058 E1.70216
G1 X131.942 Y117.593 E0.01683
G1 X170.202 Y155.854 E1.70216
G1 X170.202 Y156.389 E0.01683
G1 X131.942 Y118.128 E1.70216
G1 X131.942 Y118.663 E0.01683
G1 X170.202 Y156.924 E1.70216
M73 Q2 S104
G1 X170.202 Y157.459 E0.01683
G1 X131.942 Y119.198 E1.70216
M73 P2 R102
G1 X131.942 Y119.734 E0.01683
G1 X170.202 Y157.994 E1.70216
G1 X170.202 Y158.529 E0.01683
G1 X131.942 Y120.269 E1.70216
G1 X131.942 Y120.804 E0.01683
G1 X170.202 Y159.064 E1.70216
G1 X170.202 Y159.599 E0.01683
G1 X131.942 Y121.339 E1.70216
G1 X131.942 Y121.874 E0.01683
G1 X170.202 Y160.134 E1.70216
G1 X170.196 Y160.663 E0.01665
G1 X131.942 Y122.409 E1.70191
G1 X131.942 Y122.944 E0.01683
G1 X170.179 Y161.181 E1.70115
G1 X170.162 Y161.699 E0.01631
G1 X131.942 Y123.479 E1.70040
G1 X131.942 Y124.014 E0.01683
G1 X170.118 Y162.190 E1.69840
G1 X170.070 Y162.677 E0.01540
G1 X131.942 Y124.549 E1.69627
G1 X131.942 Y125.084 E0.01683
G1 X170.012 Y163.154 E1.69371
G1 X169.936 Y163.613 E0.01464
G1 X131.942 Y125.619 E1.69033
G1 X131.942 Y126.154 E0.01683
G1 X169.860 Y164.073 E1.68696
G1 X169.768 Y164.515 E0.01423
G1 X131.942 Y126.689 E1.68285
G1 X131.942 Y127.224 E0.01683
G1 X169.667 Y164.949 E1.67835
G1 X169.566 Y165.383 E0.01402
G1 X131.942 Y127.759 E1.67385
G1 X131.942 Y128.294 E0.01683
G1 X169.445 Y165.797 E1.66847
G1 X169.320 Y166.208 E0.01350
G1 X131.942 Y128.829 E1.66293
G1 X131.942 Y129.364 E0.01683
G1 X169.195 Y166.618 E1.65737
G1 X169.050 Y167.007 E0.01308
G1 X131.942 Y129.899 E1.65089
G1 X131.942 Y130.434 E0.01683
G1 X168.904 Y167.397 E1.64441
