; generated by PrusaSlicer 2.1.1+ on 2020-02-11 at 02:55:02 UTC

; 

; external perimeters extrusion width = 0.60mm
; perimeters extrusion width = 0.50mm
; infill extrusion width = 0.50mm
; solid infill extrusion width = 0.50mm
; top infill extrusion width = 0.45mm
; first layer extrusion width = 0.42mm

M73 P0 R23
M73 Q0 S23
M201 X1000 Y1000 Z1000 E5000 ; sets maximum accelerations, mm/sec^2
M203 X200 Y200 Z12 E120 ; sets maximum feedrates, mm/sec
M204 P1250 R1250 T1250 ; sets acceleration (P, T) and retract acceleration (R), mm/sec^2
M205 X8.00 Y8.00 Z0.40 E4.50 ; sets the jerk limits, mm/sec
M205 S0 T0 ; sets the minimum extruding and travel feed rate, mm/sec
M107
M862.3 P "MK3S" ; printer model check
M862.1 P0.4 ; nozzle diameter check
M115 U3.8.1 ; tell printer latest fw version
G90 ; use absolute coordinates
M83 ; extruder relative mode
M104 S215 ; set extruder temp
M140 S60 ; set bed temp
M190 S60 ; wait for bed temp
M109 S215 ; wait for extruder temp
G28 W ; home all without mesh bed level
G80 ; mesh bed leveling
G1 Y-3.0 F1000.0 ; go outside print area
G92 E0.0
G1 X60.0 E9.0 F1000.0 ; intro line
M73 Q0 S23
M73 P0 R23
G1 X100.0 E12.5 F1000.0 ; intro line
G92 E0.0
M221 S95
G21 ; set units to millimeters
G90 ; use absolute coordinates
M83 ; use relative distances for extrusion
M900 K30 ; Filament gcode
;BEFORE_LAYER_CHANGE
G92 E0.0
;0.2


G1 Z0.200 F10800.000
;AFTER_LAYER_CHANGE
;0.2
G1 E-0.80000 F2100.00000
G1 Z0.800 F10800.000
G1 X104.326 Y85.587
G1 Z0.200
G1 E0.80000 F2100.00000
M204 S1000
G1 F1200
G1 X104.909 Y84.925 E0.02765
G1 X105.521 Y84.381 E0.02570
G1 X106.427 Y83.762 E0.03439
G1 X107.238 Y83.363 E0.02834
G1 X108.023 Y83.091 E0.02605
G1 X109.177 Y82.861 E0.03690
G1 X140.004 Y82.811 E0.96654
G1 X141.064 Y82.893 E0.03334
G1 X142.641 Y83.317 E0.05120
G1 X143.600 Y83.778 E0.03336
G1 X144.487 Y84.388 E0.03375
G1 X145.627 Y85.530 E0.05059
G1 X146.234 Y86.421 E0.03382
G1 X146.635 Y87.235 E0.02845
G1 X146.902 Y88.002 E0.02547
G1 X147.125 Y89.050 E0.03359
G1 X147.189 Y89.996 E0.02971
G1 X147.187 Y120.091 E0.94363
G1 X147.105 Y121.075 E0.03094
G1 X146.685 Y122.638 E0.05075
G1 X146.233 Y123.581 E0.03279
G1 X145.674 Y124.413 E0.03143
G1 X145.089 Y125.077 E0.02777
G1 X144.465 Y125.631 E0.02616
G1 X143.472 Y126.291 E0.03735
G1 X142.735 Y126.648 E0.02570
G1 X141.851 Y126.946 E0.02925
G1 X140.946 Y127.126 E0.02891
G1 X140.070 Y127.187 E0.02754
G1 X109.905 Y127.186 E0.94581
G1 X108.925 Y127.105 E0.03082
G1 X107.362 Y126.685 E0.05075
G1 X106.416 Y126.231 E0.03291
G1 X105.587 Y125.674 E0.03131
G1 X104.923 Y125.089 E0.02777
G1 X104.369 Y124.465 E0.02616
G1 X103.709 Y123.472 E0.03735
G1 X103.352 Y122.735 E0.02570
G1 X103.054 Y121.851 E0.02925
G1 X102.874 Y120.946 E0.02891
G1 X102.813 Y120.070 E0.02754
G1 X102.814 Y89.905 E0.94581
G1 X102.895 Y88.925 E0.03082
G1 X103.315 Y87.362 E0.05075
G1 X103.769 Y86.416 E0.03291
G1 X104.292 Y85.637 E0.02943
G1 F8640
G1 X104.909 Y84.925 E-0.21738
G1 X105.521 Y84.381 E-0.18929
G1 X106.427 Y83.762 E-0.25326
G1 X106.816 Y83.571 E-0.10007
G1 E-0.04000 F2100.00000
G1 Z0.800 F10800.000
G1 X113.889 Y94.625
G1 Z0.200
G1 E0.80000 F2100.00000
G1 F1200
G1 X114.245 Y94.245 E0.01633
G1 X114.971 Y93.564 E0.03121
G1 X115.741 Y92.933 E0.03121
G1 X116.550 Y92.353 E0.03121
G1 X117.395 Y91.828 E0.03121
G1 X118.210 Y91.392 E0.02898
G1 X119.179 Y90.948 E0.03342
G1 X120.111 Y90.597 E0.03122
G1 X121.063 Y90.308 E0.03121
G1 X122.033 Y90.082 E0.03121
G1 X123.015 Y89.920 E0.03121
G1 X124.005 Y89.822 E0.03121
G1 X124.929 Y89.792 E0.02898
G1 X125.994 Y89.822 E0.03342
G1 X126.985 Y89.920 E0.03122
G1 X127.967 Y90.082 E0.03121
G1 X128.937 Y90.308 E0.03121
G1 X129.821 Y90.576 E0.02898
G1 X130.820 Y90.948 E0.03342
G1 X131.727 Y91.358 E0.03122
G1 X132.542 Y91.794 E0.02898
G1 X133.450 Y92.353 E0.03342
G1 X134.259 Y92.933 E0.03122
G1 X135.029 Y93.564 E0.03121
G1 X135.755 Y94.245 E0.03121
G1 X136.436 Y94.971 E0.03121
G1 X137.067 Y95.741 E0.03121
G1 X137.647 Y96.550 E0.03122
G1 X138.206 Y97.458 E0.03342
G1 X138.642 Y98.273 E0.02898
G1 X139.052 Y99.179 E0.03121
G1 X139.403 Y100.111 E0.03121
G1 X139.692 Y101.063 E0.03121
G1 X139.918 Y102.033 E0.03121
G1 X140.080 Y103.015 E0.03121
G1 X140.178 Y104.005 E0.03121
G1 X140.210 Y105.000 E0.03121
G1 X140.178 Y105.995 E0.03121
G1 X140.080 Y106.985 E0.03121
G1 X139.918 Y107.967 E0.03121
G1 X139.692 Y108.937 E0.03121
G1 X139.403 Y109.889 E0.03121
G1 X139.052 Y110.821 E0.03121
G1 X138.642 Y111.727 E0.03121
G1 X138.172 Y112.605 E0.03121
G1 X137.647 Y113.450 E0.03121
G1 X137.067 Y114.259 E0.03121
G1 X136.436 Y115.029 E0.03121
G1 X135.755 Y115.755 E0.03121
G1 X135.029 Y116.436 E0.03121
G1 X134.259 Y117.067 E0.03121
G1 X133.450 Y117.647 E0.03121
G1 X132.605 Y118.172 E0.03121
G1 X131.727 Y118.642 E0.03121
G1 X130.821 Y119.052 E0.03121
G1 X129.889 Y119.403 E0.03121
G1 X128.937 Y119.692 E0.03121
G1 X127.967 Y119.918 E0.03121
G1 X126.985 Y120.080 E0.03121
G1 X125.995 Y120.178 E0.03121
G1 X125.000 Y120.210 E0.03121
G1 X124.005 Y120.178 E0.03121
G1 X123.015 Y120.080 E0.03121
G1 X122.033 Y119.918 E0.03121
G1 X121.063 Y119.692 E0.03121
G1 X120.111 Y119.403 E0.03121
G1 X119.179 Y119.052 E0.03121
G1 X118.273 Y118.642 E0.03121
G1 X117.458 Y118.206 E0.02898
G1 X116.550 Y117.647 E0.03342
G1 X115.741 Y117.067 E0.03122
G1 X114.971 Y116.436 E0.03121
G1 X114.245 Y115.755 E0.03121
G1 X113.564 Y115.029 E0.03121
G1 X112.933 Y114.259 E0.03121
G1 X112.353 Y113.450 E0.03122
G1 X111.794 Y112.542 E0.03342
G1 X111.358 Y111.727 E0.02898
G1 X110.948 Y110.820 E0.03122
G1 X110.576 Y109.821 E0.03342
G1 X110.308 Y108.937 E0.02898
G1 X110.082 Y107.967 E0.03122
G1 X109.913 Y106.915 E0.03342
G1 X109.822 Y105.995 E0.02898
G1 X109.790 Y105.000 E0.03121
G1 X109.822 Y104.005 E0.03121
G1 X109.920 Y103.015 E0.03121
G1 X110.082 Y102.033 E0.03121
G1 X110.308 Y101.063 E0.03121
G1 X110.597 Y100.111 E0.03121
G1 X110.948 Y99.179 E0.03122
G1 X111.392 Y98.210 E0.03342
G1 X111.828 Y97.395 E0.02898
G1 X112.353 Y96.550 E0.03121
G1 X112.933 Y95.741 E0.03121
G1 X113.564 Y94.971 E0.03121
G1 X113.848 Y94.669 E0.01300
G1 F8640
G1 X114.245 Y94.245 E-0.13410
G1 X114.971 Y93.564 E-0.22982
G1 X115.741 Y92.933 E-0.22982
G1 X116.326 Y92.514 E-0.16625
G1 E-0.04000 F2100.00000
G1 Z0.800 F10800.000
G1 X105.210 Y94.669
G1 Z0.200
G1 E0.80000 F2100.00000
G1 F1200
G1 X105.210 Y90.007 E0.14617
G1 X105.251 Y89.375 E0.01986
G1 X105.374 Y88.760 E0.01964
G1 X105.575 Y88.167 E0.01964
G1 X105.852 Y87.605 E0.01964
G1 X106.200 Y87.085 E0.01961
G1 X106.648 Y86.583 E0.02111
G1 X107.084 Y86.200 E0.01820
G1 X107.605 Y85.852 E0.01964
G1 X108.167 Y85.575 E0.01964
G1 X108.760 Y85.374 E0.01964
G1 X109.375 Y85.251 E0.01964
G1 X110.007 Y85.210 E0.01986
G1 X140.040 Y85.213 E0.94167
G1 X140.625 Y85.251 E0.01838
G1 X141.240 Y85.374 E0.01964
G1 X141.832 Y85.575 E0.01961
G1 X142.433 Y85.878 E0.02111
G1 X142.916 Y86.200 E0.01820
G1 X143.387 Y86.613 E0.01964
G1 X143.800 Y87.084 E0.01964
G1 X144.148 Y87.605 E0.01964
G1 X144.425 Y88.167 E0.01964
G1 X144.626 Y88.760 E0.01964
G1 X144.749 Y89.375 E0.01964
G1 X144.790 Y90.007 E0.01986
G1 X144.790 Y119.993 E0.94020
G1 X144.749 Y120.625 E0.01986
G1 X144.626 Y121.240 E0.01964
G1 X144.425 Y121.833 E0.01964
G1 X144.168 Y122.353 E0.01820
G1 X143.799 Y122.916 E0.02111
G1 X143.387 Y123.387 E0.01961
G1 X142.916 Y123.799 E0.01961
G1 X142.353 Y124.168 E0.02111
G1 X141.833 Y124.425 E0.01820
G1 X141.240 Y124.626 E0.01964
G1 X140.625 Y124.749 E0.01964
G1 X139.993 Y124.790 E0.01986
G1 X110.007 Y124.790 E0.94020
G1 X109.375 Y124.749 E0.01986
G1 X108.760 Y124.626 E0.01964
G1 X108.167 Y124.425 E0.01964
G1 X107.605 Y124.148 E0.01964
G1 X107.084 Y123.800 E0.01964
G1 X106.613 Y123.387 E0.01964
G1 X106.200 Y122.916 E0.01964
G1 X105.852 Y122.395 E0.01964
G1 X105.575 Y121.833 E0.01964
G1 X105.374 Y121.240 E0.01964
G1 X105.251 Y120.625 E0.01964
G1 X105.210 Y119.993 E0.01986
G1 X105.210 Y94.729 E0.79215
G1 F8640
G1 X105.210 Y91.437 E-0.76000
G1 E-0.04000 F2100.00000
G1 Z0.800 F10800.000
G1 X111.967 Y113.363
G1 Z0.200
G1 E0.80000 F2100.00000
G1 F1200
G1 X105.493 Y106.888 E0.28796
G1 X105.493 Y106.353 E0.01682
G1 X111.234 Y112.095 E0.25537
G1 X111.105 Y111.852 E0.00865
G1 X110.755 Y111.081 E0.02664
G1 X105.493 Y105.819 E0.23405
G1 X105.493 Y105.284 E0.01682
G1 X110.419 Y110.210 E0.21911
G1 X110.157 Y109.413 E0.02638
G1 X105.493 Y104.749 E0.20746
G1 X105.493 Y104.214 E0.01682
G1 X109.958 Y108.679 E0.19858
G1 X109.798 Y107.985 E0.02239
G1 X105.493 Y103.679 E0.19150
G1 X105.493 Y103.144 E0.01682
G1 X109.696 Y107.347 E0.18695
G1 X109.610 Y106.727 E0.01970
G1 X105.493 Y102.609 E0.18314
G1 X105.493 Y102.074 E0.01682
G1 X109.552 Y106.134 E0.18054
G1 X109.526 Y105.572 E0.01767
G1 X105.493 Y101.539 E0.17937
G1 X105.493 Y101.005 E0.01682
G1 X109.508 Y105.019 E0.17856
G1 X109.523 Y104.500 E0.01633
G1 X105.493 Y100.470 E0.17926
G1 X105.493 Y99.935 E0.01682
G1 X109.541 Y103.983 E0.18003
G1 X109.588 Y103.496 E0.01539
G1 X105.493 Y99.400 E0.18216
G1 X105.493 Y98.865 E0.01682
G1 X109.636 Y103.009 E0.18429
G1 X109.710 Y102.548 E0.01468
G1 X105.493 Y98.330 E0.18759
G1 X105.493 Y97.795 E0.01682
G1 X109.786 Y102.089 E0.19096
G1 X109.881 Y101.649 E0.01415
G1 X105.493 Y97.260 E0.19518
G1 X105.493 Y96.725 E0.01682
G1 X109.982 Y101.215 E0.19968
G1 X110.095 Y100.793 E0.01375
G1 X105.493 Y96.191 E0.20468
G1 X105.493 Y95.656 E0.01682
G1 X110.219 Y100.382 E0.21022
G1 X110.346 Y99.974 E0.01343
G1 X105.493 Y95.121 E0.21587
G1 X105.493 Y94.586 E0.01682
G1 X110.493 Y99.586 E0.22237
G1 X110.639 Y99.197 E0.01306
G1 X105.493 Y94.051 E0.22888
G1 X105.493 Y93.516 E0.01682
G1 X110.800 Y98.823 E0.23604
G1 X110.968 Y98.456 E0.01269
G1 X105.493 Y92.981 E0.24351
G1 X105.493 Y92.446 E0.01682
G1 X111.136 Y98.090 E0.25099
G1 X111.322 Y97.741 E0.01243
G1 X105.493 Y91.911 E0.25927
G1 X105.493 Y91.377 E0.01682
G1 X111.508 Y97.392 E0.26755
G1 X111.706 Y97.055 E0.01229
G1 X105.493 Y90.842 E0.27634
G1 X105.493 Y90.307 E0.01682
G1 X111.911 Y96.725 E0.28546
G1 X112.116 Y96.395 E0.01221
G1 X105.508 Y89.787 E0.29392
G1 X105.555 Y89.299 E0.01541
G1 X112.339 Y96.084 E0.30175
G1 X112.563 Y95.772 E0.01206
G1 X105.644 Y88.853 E0.30773
G1 X105.777 Y88.452 E0.01330
G1 X112.792 Y95.467 E0.31200
G1 X113.033 Y95.173 E0.01195
G1 X105.936 Y88.075 E0.31567
G1 X106.115 Y87.720 E0.01252
G1 X113.274 Y94.879 E0.31840
G1 X113.527 Y94.597 E0.01191
G1 X106.330 Y87.400 E0.32012
G1 X106.424 Y87.259 E0.00533
G1 X106.565 Y87.100 E0.00668
G1 X113.786 Y94.321 E0.32115
G1 X114.045 Y94.045 E0.01190
G1 X106.818 Y86.818 E0.32144
G1 X106.847 Y86.784 E0.00141
G1 X107.099 Y86.564 E0.01051
G1 X114.321 Y93.786 E0.32122
G1 X114.597 Y93.527 E0.01190
G1 X107.399 Y86.330 E0.32012
G1 X107.720 Y86.115 E0.01213
G1 X114.879 Y93.274 E0.31840
G1 X115.173 Y93.033 E0.01195
G1 X108.075 Y85.936 E0.31567
G1 X108.276 Y85.837 E0.00703
G1 X108.452 Y85.777 E0.00584
G1 X115.467 Y92.792 E0.31200
G1 X115.772 Y92.563 E0.01201
G1 X108.853 Y85.644 E0.30773
G1 X109.299 Y85.555 E0.01431
G1 X116.084 Y92.339 E0.30175
G1 X116.395 Y92.116 E0.01206
G1 X109.787 Y85.508 E0.29392
G1 X110.307 Y85.493 E0.01636
G1 X116.725 Y91.911 E0.28546
G1 X117.055 Y91.706 E0.01221
G1 X110.842 Y85.493 E0.27634
G1 X111.377 Y85.493 E0.01682
G1 X117.392 Y91.508 E0.26755
G1 X117.741 Y91.322 E0.01243
G1 X111.912 Y85.493 E0.25926
G1 X112.447 Y85.493 E0.01682
G1 X118.090 Y91.136 E0.25098
G1 X118.456 Y90.968 E0.01269
G1 X112.981 Y85.493 E0.24350
G1 X113.516 Y85.493 E0.01682
G1 X118.823 Y90.800 E0.23602
G1 X119.197 Y90.639 E0.01280
G1 X114.051 Y85.493 E0.22886
G1 X114.586 Y85.493 E0.01682
G1 X119.586 Y90.493 E0.22235
G1 X119.974 Y90.346 E0.01306
G1 X115.121 Y85.493 E0.21584
G1 X115.656 Y85.493 E0.01682
G1 X120.382 Y90.219 E0.21019
G1 X120.793 Y90.095 E0.01349
G1 X116.191 Y85.493 E0.20465
G1 X116.726 Y85.493 E0.01682
G1 X121.215 Y89.982 E0.19965
G1 X121.649 Y89.881 E0.01401
G1 X117.261 Y85.494 E0.19515
G1 X117.796 Y85.494 E0.01682
G1 X122.089 Y89.786 E0.19092
G1 X122.548 Y89.710 E0.01463
G1 X118.331 Y85.494 E0.18755
G1 X118.866 Y85.494 E0.01682
G1 X123.009 Y89.636 E0.18425
G1 X123.496 Y89.588 E0.01539
G1 X119.401 Y85.494 E0.18212
G1 X119.936 Y85.494 E0.01682
G1 X123.982 Y89.541 E0.17998
G1 X124.500 Y89.523 E0.01629
G1 X120.471 Y85.494 E0.17921
G1 X121.006 Y85.494 E0.01682
G1 X125.024 Y89.512 E0.17871
G1 X125.574 Y89.528 E0.01732
G1 X121.541 Y85.494 E0.17940
G1 X122.076 Y85.494 E0.01682
G1 X126.133 Y89.552 E0.18048
G1 X126.727 Y89.610 E0.01875
G1 X122.610 Y85.494 E0.18308
G1 X123.145 Y85.494 E0.01682
G1 X127.344 Y89.693 E0.18673
G1 X127.985 Y89.798 E0.02042
G1 X123.680 Y85.494 E0.19143
G1 X124.215 Y85.494 E0.01682
G1 X128.679 Y89.958 E0.19851
G1 X129.413 Y90.157 E0.02393
G1 X124.750 Y85.494 E0.20739
G1 X125.285 Y85.494 E0.01682
G1 X130.210 Y90.419 E0.21904
G1 X131.081 Y90.755 E0.02935
G1 X125.820 Y85.494 E0.23398
G1 X126.355 Y85.494 E0.01682
G1 X132.508 Y91.648 E0.27367
G1 F8640
G1 X130.181 Y89.320 E-0.76000
G1 E-0.04000 F2100.00000
G1 Z0.800 F10800.000
G1 X134.012 Y92.617
G1 Z0.200
G1 E0.80000 F2100.00000
G1 F1200
G1 X126.890 Y85.495 E0.31678
G1 X127.425 Y85.495 E0.01682
G1 X144.507 Y102.577 E0.75975
M73 Q4 S22
M73 P4 R22
G1 X144.507 Y102.042 E0.01682
G1 X127.960 Y85.495 E0.73596
G1 X128.495 Y85.495 E0.01682
G1 X144.507 Y101.507 E0.71217
G1 X144.507 Y100.972 E0.01682
G1 X129.030 Y85.495 E0.68838
G1 X129.565 Y85.495 E0.01682
G1 X144.507 Y100.437 E0.66458
G1 X144.507 Y99.902 E0.01682
G1 X130.100 Y85.495 E0.64079
G1 X130.635 Y85.495 E0.01682
G1 X144.507 Y99.368 E0.61700
G1 X144.507 Y98.833 E0.01682
G1 X131.170 Y85.495 E0.59321
G1 X131.704 Y85.495 E0.01682
G1 X144.507 Y98.298 E0.56942
G1 X144.507 Y97.763 E0.01682
G1 X132.239 Y85.495 E0.54562
G1 X132.774 Y85.495 E0.01682
G1 X144.507 Y97.228 E0.52183
G1 X144.507 Y96.693 E0.01682
G1 X133.309 Y85.495 E0.49804
G1 X133.844 Y85.495 E0.01682
G1 X144.507 Y96.158 E0.47425
G1 X144.507 Y95.623 E0.01682
G1 X134.379 Y85.495 E0.45045
G1 X134.914 Y85.495 E0.01682
G1 X144.507 Y95.088 E0.42666
G1 X144.507 Y94.554 E0.01682
G1 X135.449 Y85.495 E0.40287
G1 X135.984 Y85.495 E0.01682
G1 X144.507 Y94.019 E0.37908
G1 X144.507 Y93.484 E0.01682
G1 X136.519 Y85.496 E0.35529
G1 X137.054 Y85.496 E0.01682
G1 X144.507 Y92.949 E0.33149
G1 X144.507 Y92.414 E0.01682
G1 X137.589 Y85.496 E0.30770
G1 X138.124 Y85.496 E0.01682
G1 X144.507 Y91.879 E0.28391
G1 X144.507 Y91.344 E0.01682
G1 X138.659 Y85.496 E0.26012
G1 X139.194 Y85.496 E0.01682
G1 X144.507 Y90.809 E0.23632
G1 X144.507 Y90.274 E0.01682
G1 X139.729 Y85.496 E0.21253
G1 X140.280 Y85.512 E0.01734
G1 X144.488 Y89.720 E0.18715
G1 X144.468 Y89.412 E0.00972
G1 X144.406 Y89.104 E0.00988
G1 X140.896 Y85.594 E0.15611
G1 X141.166 Y85.647 E0.00866
G1 X141.649 Y85.811 E0.01602
G1 X144.460 Y88.623 E0.12505
G1 F8640
G1 X142.133 Y86.295 E-0.76000
G1 E-0.04000 F2100.00000
G1 Z0.800 F10800.000
G1 X144.065 Y87.692
G1 Z0.200
G1 E0.80000 F2100.00000
G1 F1200
G1 X142.319 Y85.947 E0.07762
G1 F8640
G1 X144.065 Y87.692 E-0.56991
G1 E-0.23009 F2100.00000
G1 Z0.800 F10800.000
G1 X137.383 Y95.988
G1 Z0.200
G1 E0.80000 F2100.00000
G1 F1200
G1 X144.677 Y103.281 E0.32440
G1 X144.677 Y103.816 F10800.000
G1 F1200
G1 X138.766 Y97.905 E0.26291
G1 X138.895 Y98.148 E0.00865
G1 X139.245 Y98.919 E0.02664
G1 X144.507 Y104.181 E0.23405
G1 X144.507 Y104.716 E0.01682
G1 X139.586 Y99.796 E0.21886
G1 X139.843 Y100.587 E0.02616
G1 X144.507 Y105.251 E0.20745
G1 X144.507 Y105.786 E0.01682
G1 X140.042 Y101.321 E0.19858
G1 X140.202 Y102.015 E0.02240
G1 X144.507 Y106.321 E0.19150
G1 X144.507 Y106.856 E0.01682
G1 X140.307 Y102.656 E0.18679
G1 X140.390 Y103.273 E0.01958
G1 X144.507 Y107.391 E0.18314
G1 X144.507 Y107.926 E0.01682
G1 X140.448 Y103.867 E0.18054
G1 X140.474 Y104.428 E0.01767
G1 X144.507 Y108.461 E0.17937
G1 X144.507 Y108.995 E0.01682
G1 X140.492 Y104.981 E0.17856
G1 X140.477 Y105.500 E0.01633
G1 X144.507 Y109.530 E0.17926
G1 X144.507 Y110.065 E0.01682
G1 X140.459 Y106.018 E0.18003
G1 X140.412 Y106.504 E0.01539
G1 X144.507 Y110.600 E0.18216
G1 X144.507 Y111.135 E0.01682
G1 X140.364 Y106.991 E0.18429
G1 X140.290 Y107.452 E0.01468
G1 X144.507 Y111.670 E0.18759
G1 X144.507 Y112.205 E0.01682
G1 X140.214 Y107.911 E0.19096
G1 X140.119 Y108.351 E0.01415
