; generated by PrusaSlicer 2.1.1+ on 2020-02-11 at 11:32:19 UTC

; 

; external perimeters extrusion width = 0.45mm
; perimeters extrusion width = 0.45mm
; infill extrusion width = 0.45mm
; solid infill extrusion width = 0.45mm
; top infill extrusion width = 0.40mm
; first layer extrusion width = 0.42mm

M73 P0 R27
M73 Q0 S27
M201 X1000 Y1000 Z1000 E5000 ; sets maximum accelerations, mm/sec^2
M203 X200 Y200 Z12 E120 ; sets maximum feedrates, mm/sec
M204 P1250 R1250 T1250 ; sets acceleration (P, T) and retract acceleration (R), mm/sec^2
M205 X8.00 Y8.00 Z0.40 E4.50 ; sets the jerk limits, mm/sec
M205 S0 T0 ; sets the minimum extruding and travel feed rate, mm/sec
M107
M862.3 P "MK3S" ; printer model check
M862.1 P0.4 ; nozzle diameter check
M115 U3.8.1 ; tell printer latest fw version
G90 ; use absolute coordinates
M83 ; extruder relative mode
M104 S215 ; set extruder temp
M140 S60 ; set bed temp
M190 S60 ; wait for bed temp
M109 S215 ; wait for extruder temp
G28 W ; home all without mesh bed level
G80 ; mesh bed leveling
G1 Y-3.0 F1000.0 ; go outside print area
G92 E0.0
G1 X60.0 E9.0 F1000.0 ; intro line
M73 Q0 S27
M73 P0 R27
G1 X100.0 E12.5 F1000.0 ; intro line
G92 E0.0
M221 S95
G21 ; set units to millimeters
G90 ; use absolute coordinates
M83 ; use relative distances for extrusion
M900 K30 ; Filament gcode
;BEFORE_LAYER_CHANGE
G92 E0.0
;0.2


G1 E-0.80000 F2100.00000
G1 Z0.600 F10800.000
;AFTER_LAYER_CHANGE
;0.2
G1 X111.112 Y76.659
G1 Z0.200
G1 E0.80000 F2100.00000
M204 S1000
G1 F1200
G1 X112.034 Y75.714 E0.04140
G1 X112.799 Y75.186 E0.02915
G1 X114.018 Y74.668 E0.04152
G1 X114.975 Y74.473 E0.03063
G1 X134.379 Y74.434 E0.60840
G1 X135.257 Y74.505 E0.02761
G1 X136.429 Y74.820 E0.03807
G1 X137.226 Y75.200 E0.02767
G1 X137.957 Y75.707 E0.02791
G1 X138.806 Y76.558 E0.03769
G1 X139.310 Y77.292 E0.02791
G1 X139.687 Y78.090 E0.02766
G1 X140.006 Y79.306 E0.03943
G1 X140.066 Y80.119 E0.02556
G1 X140.063 Y98.998 E0.59192
G1 X139.990 Y99.780 E0.02464
G1 X139.683 Y100.922 E0.03707
G1 X139.320 Y101.691 E0.02668
G1 X138.888 Y102.341 E0.02445
G1 X137.942 Y103.307 E0.04239
G1 X137.093 Y103.872 E0.03199
G1 X135.838 Y104.374 E0.04238
G1 X134.476 Y104.564 E0.04313
G1 X115.491 Y104.562 E0.59526
G1 X114.717 Y104.490 E0.02437
G1 X113.578 Y104.183 E0.03697
G1 X112.809 Y103.820 E0.02668
G1 X112.162 Y103.391 E0.02433
G1 X111.194 Y102.442 E0.04251
G1 X110.628 Y101.593 E0.03199
G1 X110.126 Y100.338 E0.04239
G1 X109.936 Y98.976 E0.04313
G1 X109.938 Y79.991 E0.59526
G1 X110.010 Y79.217 E0.02437
G1 X110.319 Y78.075 E0.03709
G1 X110.680 Y77.309 E0.02655
G1 X111.079 Y76.709 E0.02257
G1 X111.392 Y76.918 F10800.000
G1 F1200
G1 X112.285 Y75.996 E0.04026
G1 X112.987 Y75.513 E0.02670
G1 X114.137 Y75.026 E0.03916
G1 X115.022 Y74.847 E0.02830
G1 X134.379 Y74.812 E0.60693
G1 X135.191 Y74.877 E0.02554
G1 X136.302 Y75.175 E0.03608
G1 X137.037 Y75.527 E0.02556
G1 X137.714 Y75.995 E0.02579
G1 X138.519 Y76.802 E0.03574
G1 X138.985 Y77.484 E0.02590
G1 X139.333 Y78.221 E0.02556
G1 X139.636 Y79.384 E0.03768
G1 X139.689 Y80.121 E0.02316
G1 X139.686 Y98.977 E0.59124
G1 X139.621 Y99.705 E0.02291
G1 X139.327 Y100.795 E0.03540
G1 X138.990 Y101.509 E0.02476
G1 X138.582 Y102.121 E0.02305
G1 X137.695 Y103.021 E0.03962
G1 X136.917 Y103.539 E0.02932
G1 X135.740 Y104.010 E0.03973
G1 X134.456 Y104.187 E0.04065
G1 X115.515 Y104.186 E0.59387
G1 X114.790 Y104.120 E0.02283
G1 X113.701 Y103.826 E0.03536
G1 X112.988 Y103.488 E0.02476
G1 X112.379 Y103.082 E0.02294
G1 X111.479 Y102.196 E0.03962
G1 X110.961 Y101.417 E0.02932
G1 X110.490 Y100.240 E0.03973
G1 X110.313 Y98.956 E0.04065
G1 X110.314 Y80.015 E0.59387
G1 X110.380 Y79.290 E0.02283
G1 X110.674 Y78.202 E0.03535
G1 X111.012 Y77.488 E0.02476
G1 X111.359 Y76.968 E0.01959
G1 F8640
G1 X112.285 Y75.996 E-0.31012
G1 X112.987 Y75.513 E-0.19663
G1 X113.997 Y75.085 E-0.25325
G1 E-0.04000 F2100.00000
G1 Z0.800 F10800.000
G1 X117.611 Y82.824
G1 Z0.200
G1 E0.80000 F2100.00000
G1 F1200
G1 X117.956 Y82.456 E0.01581
G1 X118.431 Y82.010 E0.02044
G1 X118.879 Y81.642 E0.01816
G1 X119.464 Y81.218 E0.02265
G1 X120.019 Y80.872 E0.02050
G1 X120.530 Y80.599 E0.01816
G1 X121.186 Y80.297 E0.02265
G1 X121.798 Y80.066 E0.02050
G1 X122.352 Y79.898 E0.01816
G1 X123.054 Y79.729 E0.02265
G1 X123.700 Y79.623 E0.02050
G1 X124.348 Y79.559 E0.02044
G1 X124.927 Y79.540 E0.01816
G1 X125.650 Y79.559 E0.02265
G1 X126.300 Y79.623 E0.02050
G1 X126.944 Y79.729 E0.02044
G1 X127.578 Y79.877 E0.02044
G1 X128.133 Y80.045 E0.01816
G1 X128.811 Y80.295 E0.02265
G1 X129.406 Y80.565 E0.02050
G1 X129.917 Y80.838 E0.01816
G1 X130.533 Y81.215 E0.02265
G1 X131.065 Y81.596 E0.02050
G1 X131.569 Y82.010 E0.02044
G1 X132.046 Y82.457 E0.02050
G1 X132.536 Y82.988 E0.02265
G1 X132.904 Y83.435 E0.01816
G1 X133.285 Y83.967 E0.02050
G1 X133.662 Y84.583 E0.02265
G1 X133.935 Y85.094 E0.01816
G1 X134.204 Y85.688 E0.02044
G1 X134.434 Y86.298 E0.02044
G1 X134.623 Y86.922 E0.02044
G1 X134.771 Y87.558 E0.02050
G1 X134.884 Y88.272 E0.02265
G1 X134.941 Y88.848 E0.01816
G1 X134.962 Y89.500 E0.02044
G1 X134.941 Y90.152 E0.02044
G1 X134.877 Y90.800 E0.02044
G1 X134.771 Y91.444 E0.02044
G1 X134.623 Y92.079 E0.02044
G1 X134.434 Y92.702 E0.02044
G1 X134.204 Y93.313 E0.02044
G1 X133.935 Y93.906 E0.02044
G1 X133.628 Y94.481 E0.02044
G1 X133.283 Y95.035 E0.02044
G1 X132.904 Y95.565 E0.02044
G1 X132.490 Y96.069 E0.02044
G1 X132.044 Y96.545 E0.02044
G1 X131.569 Y96.990 E0.02044
G1 X131.065 Y97.404 E0.02044
G1 X130.535 Y97.783 E0.02044
G1 X129.981 Y98.128 E0.02044
G1 X129.406 Y98.435 E0.02044
G1 X128.812 Y98.704 E0.02044
G1 X128.202 Y98.934 E0.02044
G1 X127.578 Y99.123 E0.02044
G1 X126.944 Y99.271 E0.02044
G1 X126.300 Y99.377 E0.02044
G1 X125.652 Y99.441 E0.02044
G1 X125.000 Y99.462 E0.02044
G1 X124.348 Y99.441 E0.02044
G1 X123.772 Y99.384 E0.01816
G1 X123.058 Y99.271 E0.02265
G1 X122.422 Y99.123 E0.02050
G1 X121.798 Y98.934 E0.02044
G1 X121.188 Y98.704 E0.02044
G1 X120.594 Y98.435 E0.02044
G1 X120.083 Y98.162 E0.01816
G1 X119.467 Y97.785 E0.02265
G1 X118.935 Y97.404 E0.02050
G1 X118.487 Y97.036 E0.01816
G1 X117.957 Y96.546 E0.02265
G1 X117.510 Y96.069 E0.02050
G1 X117.096 Y95.565 E0.02044
G1 X116.715 Y95.033 E0.02050
G1 X116.338 Y94.417 E0.02265
G1 X116.065 Y93.906 E0.01816
G1 X115.795 Y93.311 E0.02050
G1 X115.545 Y92.633 E0.02265
G1 X115.377 Y92.079 E0.01816
G1 X115.229 Y91.442 E0.02050
G1 X115.116 Y90.728 E0.02265
G1 X115.059 Y90.152 E0.01816
G1 X115.038 Y89.500 E0.02044
G1 X115.059 Y88.848 E0.02044
G1 X115.123 Y88.200 E0.02044
G1 X115.229 Y87.555 E0.02050
G1 X115.398 Y86.852 E0.02265
G1 X115.566 Y86.298 E0.01816
G1 X115.797 Y85.686 E0.02050
G1 X116.099 Y85.030 E0.02265
G1 X116.372 Y84.519 E0.01816
G1 X116.718 Y83.964 E0.02050
G1 X117.142 Y83.379 E0.02265
G1 X117.570 Y82.867 E0.02091
G1 X117.845 Y83.125 F10800.000
G1 F1200
G1 X118.222 Y82.722 E0.01731
G1 X118.680 Y82.294 E0.01967
G1 X119.110 Y81.941 E0.01743
G1 X119.674 Y81.531 E0.02188
G1 X120.207 Y81.199 E0.01969
G1 X120.698 Y80.937 E0.01743
G1 X121.331 Y80.645 E0.02188
G1 X121.919 Y80.424 E0.01969
G1 X122.451 Y80.262 E0.01743
G1 X123.129 Y80.099 E0.02188
G1 X123.749 Y79.997 E0.01969
G1 X124.373 Y79.935 E0.01967
G1 X124.929 Y79.917 E0.01743
G1 X125.626 Y79.935 E0.02188
G1 X126.251 Y79.997 E0.01969
G1 X126.870 Y80.099 E0.01967
G1 X127.481 Y80.242 E0.01967
G1 X128.013 Y80.403 E0.01743
G1 X128.667 Y80.644 E0.02188
G1 X129.239 Y80.903 E0.01969
G1 X129.730 Y81.165 E0.01743
G1 X130.325 Y81.530 E0.02188
G1 X130.835 Y81.896 E0.01969
G1 X131.320 Y82.294 E0.01967
G1 X131.778 Y82.723 E0.01969
G1 X132.252 Y83.235 E0.02188
G1 X132.604 Y83.665 E0.01743
G1 X132.970 Y84.175 E0.01969
G1 X133.335 Y84.770 E0.02188
G1 X133.597 Y85.261 E0.01743
G1 X133.855 Y85.832 E0.01967
G1 X134.076 Y86.419 E0.01967
G1 X134.259 Y87.019 E0.01967
G1 X134.401 Y87.631 E0.01969
G1 X134.510 Y88.320 E0.02188
G1 X134.565 Y88.873 E0.01743
G1 X134.585 Y89.500 E0.01967
G1 X134.565 Y90.127 E0.01967
G1 X134.503 Y90.751 E0.01967
G1 X134.401 Y91.370 E0.01967
G1 X134.259 Y91.981 E0.01967
G1 X134.076 Y92.581 E0.01967
G1 X133.855 Y93.168 E0.01967
G1 X133.597 Y93.739 E0.01967
G1 X133.301 Y94.293 E0.01967
G1 X132.970 Y94.825 E0.01967
G1 X132.604 Y95.335 E0.01967
G1 X132.206 Y95.820 E0.01967
G1 X131.778 Y96.278 E0.01967
G1 X131.320 Y96.707 E0.01967
G1 X130.835 Y97.104 E0.01967
G1 X130.325 Y97.470 E0.01967
G1 X129.793 Y97.801 E0.01967
G1 X129.239 Y98.097 E0.01967
G1 X128.668 Y98.356 E0.01967
G1 X128.081 Y98.576 E0.01967
G1 X127.481 Y98.759 E0.01967
G1 X126.870 Y98.901 E0.01967
G1 X126.251 Y99.003 E0.01967
G1 X125.627 Y99.065 E0.01967
G1 X125.000 Y99.085 E0.01967
G1 X124.373 Y99.065 E0.01967
G1 X123.820 Y99.010 E0.01743
G1 X123.131 Y98.901 E0.02188
G1 X122.519 Y98.759 E0.01969
G1 X121.919 Y98.576 E0.01967
G1 X121.332 Y98.356 E0.01967
G1 X120.761 Y98.097 E0.01967
G1 X120.270 Y97.835 E0.01743
G1 X119.675 Y97.470 E0.02188
G1 X119.165 Y97.104 E0.01969
G1 X118.735 Y96.752 E0.01743
G1 X118.223 Y96.278 E0.02188
G1 X117.794 Y95.820 E0.01969
G1 X117.396 Y95.335 E0.01967
G1 X117.030 Y94.825 E0.01969
G1 X116.665 Y94.230 E0.02188
G1 X116.403 Y93.739 E0.01743
G1 X116.144 Y93.167 E0.01969
G1 X115.903 Y92.513 E0.02188
G1 X115.741 Y91.981 E0.01743
G1 X115.599 Y91.369 E0.01969
G1 X115.490 Y90.680 E0.02188
G1 X115.435 Y90.127 E0.01743
G1 X115.415 Y89.500 E0.01967
G1 X115.435 Y88.873 E0.01967
G1 X115.497 Y88.249 E0.01967
G1 X115.599 Y87.629 E0.01969
G1 X115.762 Y86.951 E0.02188
G1 X115.924 Y86.419 E0.01743
G1 X116.145 Y85.831 E0.01969
G1 X116.437 Y85.198 E0.02188
G1 X116.699 Y84.708 E0.01743
G1 X117.031 Y84.174 E0.01969
G1 X117.441 Y83.610 E0.02188
G1 X117.804 Y83.169 E0.01791
G1 X117.717 Y82.746 F10800.000
G1 F8640
G1 X118.222 Y82.722 E-0.14131
G1 X118.680 Y82.294 E-0.14483
G1 X119.110 Y81.941 E-0.12836
G1 X119.674 Y81.531 E-0.16110
G1 X120.207 Y81.199 E-0.14499
G1 X120.358 Y81.119 E-0.03940
G1 E-0.04000 F2100.00000
G1 Z0.800 F10800.000
G1 X113.110 Y79.794
G1 Z0.200
G1 E0.80000 F2100.00000
G1 F1200
G1 X113.175 Y79.469 E0.01040
G1 X113.268 Y79.195 E0.00905
G1 X113.430 Y78.853 E0.01187
G1 X113.613 Y78.581 E0.01028
G1 X113.831 Y78.331 E0.01040
G1 X114.078 Y78.115 E0.01028
G1 X114.395 Y77.909 E0.01187
G1 X114.654 Y77.781 E0.00905
G1 X114.968 Y77.675 E0.01040
G1 X115.294 Y77.610 E0.01040
G1 X115.644 Y77.587 E0.01101
G1 X134.403 Y77.590 E0.58816
G1 X134.706 Y77.610 E0.00953
G1 X135.032 Y77.675 E0.01040
G1 X135.342 Y77.780 E0.01028
G1 X135.679 Y77.952 E0.01187
G1 X135.919 Y78.113 E0.00905
G1 X136.169 Y78.331 E0.01040
G1 X136.387 Y78.581 E0.01040
G1 X136.572 Y78.857 E0.01040
G1 X136.719 Y79.154 E0.01040
G1 X136.825 Y79.469 E0.01040
G1 X136.890 Y79.794 E0.01040
G1 X136.913 Y80.144 E0.01101
G1 X136.913 Y98.856 E0.58669
G1 X136.890 Y99.206 E0.01101
G1 X136.825 Y99.532 E0.01040
G1 X136.719 Y99.846 E0.01040
G1 X136.572 Y100.143 E0.01040
G1 X136.387 Y100.419 E0.01040
G1 X136.169 Y100.669 E0.01040
G1 X135.922 Y100.885 E0.01028
G1 X135.605 Y101.091 E0.01187
G1 X135.346 Y101.219 E0.00905
G1 X135.032 Y101.325 E0.01040
G1 X134.706 Y101.390 E0.01040
G1 X134.356 Y101.413 E0.01101
G1 X115.644 Y101.413 E0.58669
G1 X115.294 Y101.390 E0.01101
G1 X114.968 Y101.325 E0.01040
G1 X114.654 Y101.219 E0.01040
G1 X114.357 Y101.072 E0.01040
G1 X114.081 Y100.888 E0.01040
G1 X113.831 Y100.669 E0.01040
G1 X113.613 Y100.419 E0.01040
G1 X113.428 Y100.143 E0.01040
G1 X113.281 Y99.846 E0.01040
G1 X113.175 Y99.532 E0.01040
G1 X113.110 Y99.206 E0.01040
G1 X113.087 Y98.856 E0.01101
G1 X113.087 Y80.144 E0.58669
G1 X113.106 Y79.854 E0.00913
G1 X112.730 Y79.829 F10800.000
G1 F1200
G1 X112.810 Y79.371 E0.01459
G1 X112.918 Y79.053 E0.01052
G1 X113.102 Y78.667 E0.01342
G1 X113.313 Y78.351 E0.01191
G1 X113.564 Y78.064 E0.01195
G1 X113.850 Y77.814 E0.01191
G1 X114.209 Y77.581 E0.01342
G1 X114.510 Y77.432 E0.01052
G1 X114.871 Y77.310 E0.01195
G1 X115.245 Y77.235 E0.01195
G1 X115.632 Y77.210 E0.01217
G1 X134.415 Y77.213 E0.58893
G1 X134.755 Y77.235 E0.01069
G1 X135.129 Y77.310 E0.01195
G1 X135.489 Y77.432 E0.01191
G1 X135.870 Y77.626 E0.01342
G1 X136.149 Y77.813 E0.01052
G1 X136.436 Y78.064 E0.01195
G1 X136.687 Y78.351 E0.01195
G1 X136.899 Y78.668 E0.01195
G1 X137.068 Y79.010 E0.01195
G1 X137.190 Y79.371 E0.01195
G1 X137.265 Y79.745 E0.01195
G1 X137.290 Y80.132 E0.01217
G1 X137.290 Y98.868 E0.58746
G1 X137.265 Y99.255 E0.01217
G1 X137.190 Y99.629 E0.01195
G1 X137.068 Y99.990 E0.01195
G1 X136.899 Y100.332 E0.01195
G1 X136.687 Y100.649 E0.01195
G1 X136.436 Y100.936 E0.01195
G1 X136.150 Y101.186 E0.01191
G1 X135.791 Y101.419 E0.01342
G1 X135.490 Y101.568 E0.01052
G1 X135.129 Y101.690 E0.01195
G1 X134.755 Y101.765 E0.01195
G1 X134.368 Y101.790 E0.01217
G1 X115.632 Y101.790 E0.58746
G1 X115.245 Y101.765 E0.01217
G1 X114.871 Y101.690 E0.01195
G1 X114.510 Y101.568 E0.01195
G1 X114.168 Y101.399 E0.01195
G1 X113.851 Y101.187 E0.01195
G1 X113.564 Y100.936 E0.01195
G1 X113.313 Y100.649 E0.01195
G1 X113.101 Y100.332 E0.01195
G1 X112.932 Y99.990 E0.01195
G1 X112.810 Y99.629 E0.01195
G1 X112.735 Y99.255 E0.01195
G1 X112.710 Y98.868 E0.01217
G1 X112.710 Y80.132 E0.58746
G1 X112.726 Y79.889 E0.00763
G1 X113.097 Y79.670 F10800.000
G1 F8640
G1 X112.810 Y79.371 E-0.12124
G1 X112.918 Y79.053 E-0.07749
G1 X113.102 Y78.667 E-0.09881
G1 X113.313 Y78.351 E-0.08770
G1 X113.564 Y78.064 E-0.08803
G1 X113.850 Y77.814 E-0.08770
G1 X114.209 Y77.581 E-0.09881
G1 X114.510 Y77.432 E-0.07749
G1 X114.603 Y77.401 E-0.02272
G1 E-0.04000 F2100.00000
G1 Z0.800 F10800.000
G1 X115.867 Y93.742
G1 Z0.200
G1 E0.80000 F2100.00000
G1 F1200
G1 X113.370 Y91.246 E0.11107
G1 X113.370 Y90.711 E0.01683
G1 X115.231 Y92.572 E0.08281
G1 X115.030 Y91.836 E0.02401
G1 X113.370 Y90.176 E0.07386
G1 X113.370 Y89.641 E0.01683
G1 X114.899 Y91.170 E0.06804
G1 X114.814 Y90.550 E0.01970
G1 X113.370 Y89.106 E0.06425
G1 X113.370 Y88.571 E0.01683
G1 X114.770 Y89.971 E0.06229
G1 X114.757 Y89.423 E0.01724
G1 X113.370 Y88.036 E0.06172
G1 X113.370 Y87.501 E0.01683
G1 X114.774 Y88.905 E0.06247
G1 X114.818 Y88.413 E0.01552
G1 X113.370 Y86.966 E0.06441
G1 X113.370 Y86.430 E0.01683
G1 X114.879 Y87.940 E0.06714
G1 X114.956 Y87.482 E0.01461
G1 X113.370 Y85.895 E0.07057
G1 X113.370 Y85.360 E0.01683
G1 X115.060 Y87.050 E0.07518
G1 X115.171 Y86.627 E0.01378
G1 X113.370 Y84.825 E0.08013
G1 X113.370 Y84.290 E0.01683
G1 X115.296 Y86.216 E0.08567
G1 X115.441 Y85.827 E0.01307
G1 X113.370 Y83.755 E0.09216
G1 X113.370 Y83.220 E0.01683
G1 X115.596 Y85.446 E0.09902
G1 X115.765 Y85.080 E0.01268
G1 X113.370 Y82.685 E0.10654
G1 X113.370 Y82.150 E0.01683
G1 X115.943 Y84.723 E0.11446
G1 X116.129 Y84.374 E0.01243
G1 X113.370 Y81.615 E0.12275
G1 X113.370 Y81.080 E0.01683
G1 X116.334 Y84.045 E0.13188
G1 X116.545 Y83.720 E0.01217
G1 X113.370 Y80.545 E0.14125
G1 X113.379 Y80.019 E0.01656
G1 X116.770 Y83.410 E0.15088
G1 X117.001 Y83.106 E0.01201
G1 X113.447 Y79.552 E0.15812
G1 X113.595 Y79.165 E0.01303
G1 X117.242 Y82.812 E0.16224
G1 X117.497 Y82.532 E0.01191
G1 X113.790 Y78.825 E0.16492
G1 X114.032 Y78.532 E0.01196
G1 X117.755 Y82.256 E0.16566
G1 X118.032 Y81.997 E0.01191
G1 X114.326 Y78.291 E0.16485
G1 X114.663 Y78.093 E0.01229
G1 X118.312 Y81.742 E0.16235
G1 X118.606 Y81.501 E0.01196
G1 X115.052 Y77.947 E0.15812
G1 X115.331 Y77.891 E0.00896
G1 X115.519 Y77.879 E0.00592
G1 X118.910 Y81.270 E0.15088
G1 X119.220 Y81.045 E0.01205
G1 X116.045 Y77.870 E0.14125
G1 X116.580 Y77.870 E0.01683
G1 X119.544 Y80.834 E0.13187
G1 X119.874 Y80.629 E0.01222
G1 X117.115 Y77.870 E0.12274
G1 X117.650 Y77.870 E0.01683
G1 X120.223 Y80.443 E0.11444
G1 X120.580 Y80.265 E0.01255
G1 X118.186 Y77.870 E0.10652
G1 X118.721 Y77.870 E0.01683
G1 X120.946 Y80.096 E0.09900
G1 X121.327 Y79.941 E0.01292
G1 X119.256 Y77.871 E0.09213
G1 X119.791 Y77.871 E0.01683
G1 X121.716 Y79.796 E0.08564
G1 X122.126 Y79.671 E0.01349
G1 X120.326 Y77.871 E0.08010
G1 X120.861 Y77.871 E0.01683
G1 X122.550 Y79.560 E0.07514
G1 X122.981 Y79.456 E0.01396
G1 X121.396 Y77.871 E0.07052
G1 X121.931 Y77.871 E0.01683
G1 X123.440 Y79.379 E0.06710
G1 X123.913 Y79.318 E0.01502
G1 X122.466 Y77.871 E0.06436
G1 X123.002 Y77.871 E0.01683
G1 X124.405 Y79.274 E0.06242
G1 X124.923 Y79.257 E0.01631
G1 X123.537 Y77.871 E0.06166
