; generated by PrusaSlicer 2.1.1+ on 2020-02-11 at 03:20:08 UTC

; 

; external perimeters extrusion width = 0.60mm
; perimeters extrusion width = 0.50mm
; infill extrusion width = 0.50mm
; solid infill extrusion width = 0.50mm
; top infill extrusion width = 0.45mm
; first layer extrusion width = 0.42mm

M73 P0 R9
M73 Q0 S9
M201 X1000 Y1000 Z1000 E5000 ; sets maximum accelerations, mm/sec^2
M203 X200 Y200 Z12 E120 ; sets maximum feedrates, mm/sec
M204 P1250 R1250 T1250 ; sets acceleration (P, T) and retract acceleration (R), mm/sec^2
M205 X8.00 Y8.00 Z0.40 E4.50 ; sets the jerk limits, mm/sec
M205 S0 T0 ; sets the minimum extruding and travel feed rate, mm/sec
M107
M862.3 P "MK3S" ; printer model check
M862.1 P0.4 ; nozzle diameter check
M115 U3.8.1 ; tell printer latest fw version
G90 ; use absolute coordinates
M83 ; extruder relative mode
M104 S215 ; set extruder temp
M140 S60 ; set bed temp
M190 S60 ; wait for bed temp
M109 S215 ; wait for extruder temp
G28 W ; home all without mesh bed level
G80 ; mesh bed leveling
G1 Y-3.0 F1000.0 ; go outside print area
G92 E0.0
G1 X60.0 E9.0 F1000.0 ; intro line
M73 Q0 S9
M73 P0 R9
G1 X100.0 E12.5 F1000.0 ; intro line
G92 E0.0
M221 S95
G21 ; set units to millimeters
G90 ; use absolute coordinates
M83 ; use relative distances for extrusion
M900 K30 ; Filament gcode
;BEFORE_LAYER_CHANGE
G92 E0.0
;0.2


G1 Z0.200 F10800.000
;AFTER_LAYER_CHANGE
;0.2
G1 E-0.80000 F2100.00000
G1 Z0.800 F10800.000
G1 X111.109 Y92.162
G1 Z0.200
G1 E0.80000 F2100.00000
M204 S1000
G1 F1200
G1 X112.034 Y91.214 E0.04152
G1 X112.799 Y90.686 E0.02915
G1 X114.018 Y90.168 E0.04152
G1 X114.971 Y89.973 E0.03051
G1 X134.379 Y89.934 E0.60853
G1 X135.257 Y90.005 E0.02761
G1 X136.429 Y90.320 E0.03807
G1 X137.226 Y90.700 E0.02767
G1 X137.957 Y91.207 E0.02791
G1 X138.806 Y92.058 E0.03769
G1 X139.310 Y92.792 E0.02791
G1 X139.688 Y93.594 E0.02779
G1 X140.006 Y94.806 E0.03930
G1 X140.066 Y95.619 E0.02556
G1 X140.063 Y114.498 E0.59192
G1 X139.990 Y115.280 E0.02464
G1 X139.683 Y116.422 E0.03707
G1 X139.320 Y117.191 E0.02668
G1 X138.891 Y117.838 E0.02433
G1 X137.942 Y118.806 E0.04251
G1 X137.093 Y119.372 E0.03199
G1 X135.838 Y119.874 E0.04238
G1 X134.476 Y120.064 E0.04313
G1 X115.491 Y120.062 E0.59526
G1 X114.717 Y119.990 E0.02437
G1 X113.578 Y119.683 E0.03697
G1 X112.809 Y119.320 E0.02668
G1 X112.162 Y118.891 E0.02433
G1 X111.194 Y117.942 E0.04251
G1 X110.628 Y117.093 E0.03199
G1 X110.126 Y115.838 E0.04239
G1 X109.936 Y114.476 E0.04313
G1 X109.938 Y95.491 E0.59526
G1 X110.010 Y94.717 E0.02437
G1 X110.317 Y93.578 E0.03697
G1 X110.680 Y92.809 E0.02668
G1 X111.076 Y92.212 E0.02245
G1 X111.390 Y92.421 F10800.000
G1 F1200
G1 X112.285 Y91.496 E0.04038
G1 X112.987 Y91.013 E0.02670
G1 X114.137 Y90.526 E0.03916
G1 X115.022 Y90.347 E0.02830
G1 X134.379 Y90.311 E0.60693
G1 X135.191 Y90.376 E0.02554
G1 X136.302 Y90.675 E0.03608
G1 X137.037 Y91.027 E0.02556
G1 X137.714 Y91.495 E0.02579
G1 X138.519 Y92.302 E0.03574
G1 X138.985 Y92.983 E0.02590
G1 X139.333 Y93.721 E0.02556
G1 X139.636 Y94.884 E0.03768
G1 X139.689 Y95.621 E0.02316
G1 X139.686 Y114.477 E0.59124
G1 X139.621 Y115.205 E0.02291
G1 X139.327 Y116.295 E0.03540
G1 X138.990 Y117.009 E0.02476
G1 X138.582 Y117.621 E0.02305
G1 X137.695 Y118.521 E0.03962
G1 X136.917 Y119.039 E0.02932
G1 X135.740 Y119.510 E0.03973
G1 X134.456 Y119.687 E0.04065
G1 X115.515 Y119.686 E0.59387
G1 X114.790 Y119.620 E0.02283
G1 X113.701 Y119.326 E0.03536
G1 X112.988 Y118.988 E0.02476
G1 X112.379 Y118.582 E0.02294
G1 X111.479 Y117.695 E0.03962
G1 X110.961 Y116.917 E0.02932
G1 X110.490 Y115.740 E0.03973
G1 X110.313 Y114.456 E0.04065
G1 X110.314 Y95.515 E0.59387
G1 X110.380 Y94.790 E0.02283
G1 X110.674 Y93.701 E0.03535
G1 X111.012 Y92.988 E0.02476
G1 X111.357 Y92.471 E0.01947
G1 F8640
G1 X112.285 Y91.496 E-0.31101
G1 X112.987 Y91.013 E-0.19663
G1 X113.993 Y90.587 E-0.25235
G1 E-0.04000 F2100.00000
G1 Z0.800 F10800.000
G1 X117.883 Y98.584
G1 Z0.200
G1 E0.80000 F2100.00000
G1 F1200
G1 X118.222 Y98.222 E0.01555
G1 X118.680 Y97.794 E0.01967
G1 X119.110 Y97.441 E0.01743
G1 X119.674 Y97.031 E0.02188
G1 X120.207 Y96.699 E0.01969
G1 X120.698 Y96.437 E0.01743
G1 X121.331 Y96.145 E0.02188
G1 X121.919 Y95.924 E0.01969
G1 X122.451 Y95.762 E0.01743
G1 X123.129 Y95.599 E0.02188
G1 X123.749 Y95.497 E0.01969
G1 X124.373 Y95.435 E0.01967
G1 X124.929 Y95.417 E0.01743
G1 X125.626 Y95.435 E0.02188
G1 X126.251 Y95.497 E0.01969
G1 X126.870 Y95.599 E0.01967
G1 X127.481 Y95.741 E0.01967
G1 X128.013 Y95.903 E0.01743
G1 X128.667 Y96.144 E0.02188
G1 X129.239 Y96.403 E0.01969
G1 X129.730 Y96.665 E0.01743
G1 X130.325 Y97.030 E0.02188
G1 X130.835 Y97.396 E0.01969
G1 X131.320 Y97.794 E0.01967
G1 X131.778 Y98.223 E0.01969
G1 X132.252 Y98.735 E0.02188
G1 X132.604 Y99.165 E0.01743
G1 X132.970 Y99.675 E0.01969
G1 X133.335 Y100.270 E0.02188
G1 X133.597 Y100.761 E0.01743
G1 X133.855 Y101.332 E0.01967
G1 X134.076 Y101.919 E0.01967
G1 X134.259 Y102.519 E0.01967
G1 X134.401 Y103.131 E0.01969
G1 X134.510 Y103.820 E0.02188
G1 X134.565 Y104.373 E0.01743
G1 X134.585 Y105.000 E0.01967
G1 X134.565 Y105.627 E0.01967
G1 X134.503 Y106.251 E0.01967
G1 X134.401 Y106.870 E0.01967
G1 X134.259 Y107.481 E0.01967
G1 X134.076 Y108.081 E0.01967
G1 X133.855 Y108.668 E0.01967
G1 X133.597 Y109.239 E0.01967
G1 X133.301 Y109.793 E0.01967
G1 X132.970 Y110.325 E0.01967
G1 X132.604 Y110.835 E0.01967
G1 X132.206 Y111.320 E0.01967
G1 X131.778 Y111.778 E0.01967
G1 X131.320 Y112.206 E0.01967
G1 X130.835 Y112.604 E0.01967
G1 X130.325 Y112.970 E0.01967
G1 X129.793 Y113.301 E0.01967
G1 X129.239 Y113.597 E0.01967
G1 X128.668 Y113.855 E0.01967
G1 X128.081 Y114.076 E0.01967
G1 X127.481 Y114.259 E0.01967
G1 X126.870 Y114.401 E0.01967
G1 X126.251 Y114.503 E0.01967
G1 X125.627 Y114.565 E0.01967
G1 X125.000 Y114.585 E0.01967
G1 X124.373 Y114.565 E0.01967
G1 X123.820 Y114.510 E0.01743
G1 X123.131 Y114.401 E0.02188
G1 X122.519 Y114.259 E0.01969
G1 X121.919 Y114.076 E0.01967
G1 X121.332 Y113.855 E0.01967
G1 X120.761 Y113.597 E0.01967
G1 X120.270 Y113.335 E0.01743
G1 X119.675 Y112.970 E0.02188
G1 X119.165 Y112.604 E0.01969
G1 X118.735 Y112.252 E0.01743
G1 X118.223 Y111.778 E0.02188
G1 X117.794 Y111.320 E0.01969
G1 X117.396 Y110.835 E0.01967
G1 X117.030 Y110.325 E0.01969
G1 X116.665 Y109.730 E0.02188
G1 X116.403 Y109.239 E0.01743
G1 X116.144 Y108.667 E0.01969
G1 X115.903 Y108.013 E0.02188
G1 X115.741 Y107.481 E0.01743
G1 X115.599 Y106.869 E0.01969
G1 X115.490 Y106.180 E0.02188
G1 X115.435 Y105.627 E0.01743
G1 X115.415 Y105.000 E0.01967
G1 X115.435 Y104.373 E0.01967
G1 X115.497 Y103.749 E0.01967
G1 X115.599 Y103.129 E0.01969
G1 X115.762 Y102.451 E0.02188
G1 X115.924 Y101.919 E0.01743
G1 X116.145 Y101.331 E0.01969
G1 X116.437 Y100.698 E0.02188
G1 X116.699 Y100.207 E0.01743
G1 X117.031 Y99.674 E0.01969
G1 X117.441 Y99.110 E0.02188
G1 X117.842 Y98.628 E0.01966
G1 F8640
G1 X118.222 Y98.222 E-0.12836
G1 X118.680 Y97.794 E-0.14483
G1 X119.110 Y97.441 E-0.12836
G1 X119.674 Y97.031 E-0.16110
G1 X120.207 Y96.699 E-0.14499
G1 X120.407 Y96.592 E-0.05236
G1 E-0.04000 F2100.00000
G1 Z0.800 F10800.000
G1 X112.710 Y98.628
G1 Z0.200
G1 E0.80000 F2100.00000
G1 F1200
G1 X112.710 Y95.632 E0.09394
G1 X112.735 Y95.245 E0.01217
G1 X112.810 Y94.871 E0.01195
G1 X112.918 Y94.553 E0.01052
G1 X113.102 Y94.167 E0.01342
G1 X113.313 Y93.851 E0.01191
G1 X113.564 Y93.564 E0.01195
G1 X113.850 Y93.314 E0.01191
G1 X114.209 Y93.081 E0.01342
G1 X114.510 Y92.932 E0.01052
G1 X114.871 Y92.810 E0.01195
G1 X115.245 Y92.735 E0.01195
G1 X115.632 Y92.710 E0.01217
G1 X134.415 Y92.713 E0.58893
G1 X134.755 Y92.735 E0.01069
G1 X135.129 Y92.810 E0.01195
G1 X135.489 Y92.932 E0.01191
G1 X135.870 Y93.126 E0.01342
G1 X136.149 Y93.313 E0.01052
G1 X136.436 Y93.564 E0.01195
G1 X136.687 Y93.851 E0.01195
G1 X136.899 Y94.168 E0.01195
G1 X137.068 Y94.510 E0.01195
G1 X137.190 Y94.871 E0.01195
G1 X137.265 Y95.245 E0.01195
G1 X137.290 Y95.632 E0.01217
G1 X137.290 Y114.368 E0.58746
G1 X137.265 Y114.755 E0.01217
G1 X137.190 Y115.129 E0.01195
G1 X137.068 Y115.490 E0.01195
G1 X136.899 Y115.832 E0.01195
G1 X136.687 Y116.149 E0.01195
G1 X136.436 Y116.436 E0.01195
G1 X136.150 Y116.686 E0.01191
G1 X135.791 Y116.919 E0.01342
G1 X135.490 Y117.068 E0.01052
G1 X135.129 Y117.190 E0.01195
G1 X134.755 Y117.265 E0.01195
G1 X134.368 Y117.290 E0.01217
G1 X115.632 Y117.290 E0.58746
G1 X115.245 Y117.265 E0.01217
G1 X114.871 Y117.190 E0.01195
G1 X114.510 Y117.068 E0.01195
G1 X114.168 Y116.899 E0.01195
G1 X113.851 Y116.687 E0.01195
G1 X113.564 Y116.436 E0.01195
G1 X113.313 Y116.149 E0.01195
G1 X113.101 Y115.832 E0.01195
G1 X112.932 Y115.490 E0.01195
G1 X112.810 Y115.129 E0.01195
G1 X112.735 Y114.755 E0.01195
G1 X112.710 Y114.368 E0.01217
G1 X112.710 Y98.688 E0.49164
G1 F8640
G1 X112.710 Y95.632 E-0.70567
G1 X112.725 Y95.397 E-0.05433
G1 E-0.04000 F2100.00000
G1 Z0.800 F10800.000
G1 X112.858 Y114.794
G1 Z0.200
G1 E0.80000 F2100.00000
G1 F1200
G1 X114.990 Y116.926 E0.09482
G1 X115.282 Y116.984 E0.00936
G1 X115.604 Y117.005 E0.01017
G1 X112.995 Y114.396 E0.11606
G1 X112.993 Y113.859 E0.01691
G1 X116.141 Y117.007 E0.14008
G1 X116.677 Y117.007 E0.01683
G1 X112.993 Y113.323 E0.16388
G1 X112.993 Y112.788 E0.01683
G1 X117.212 Y117.007 E0.18768
G1 X117.747 Y117.007 E0.01683
G1 X112.993 Y112.253 E0.21148
G1 X112.993 Y111.718 E0.01683
G1 X118.282 Y117.007 E0.23528
G1 X118.817 Y117.007 E0.01683
G1 X112.993 Y111.183 E0.25908
G1 X112.993 Y110.648 E0.01683
G1 X119.352 Y117.007 E0.28288
G1 X119.887 Y117.007 E0.01683
G1 X112.993 Y110.113 E0.30668
G1 X112.993 Y109.578 E0.01683
G1 X120.422 Y117.007 E0.33049
G1 X120.957 Y117.007 E0.01683
G1 X112.993 Y109.043 E0.35429
G1 X112.993 Y108.508 E0.01683
G1 X121.492 Y117.007 E0.37809
G1 X122.027 Y117.007 E0.01683
G1 X112.993 Y107.973 E0.40189
G1 X112.993 Y107.438 E0.01683
G1 X122.562 Y117.007 E0.42569
G1 X123.097 Y117.007 E0.01683
G1 X112.993 Y106.903 E0.44949
G1 X112.993 Y106.368 E0.01683
G1 X116.334 Y109.709 E0.14864
G1 X116.150 Y109.365 E0.01230
G1 X115.852 Y108.693 E0.02312
G1 X112.993 Y105.833 E0.12720
G1 X112.993 Y105.298 E0.01683
G1 X115.564 Y107.869 E0.11438
G1 X115.372 Y107.143 E0.02364
G1 X112.993 Y104.763 E0.10586
G1 X112.993 Y104.228 E0.01683
G1 X115.252 Y106.488 E0.10052
G1 X115.176 Y105.876 E0.01938
G1 X112.993 Y103.693 E0.09712
G1 X112.993 Y103.158 E0.01683
G1 X115.142 Y105.307 E0.09561
G1 X115.139 Y104.770 E0.01691
G1 X112.993 Y102.623 E0.09550
G1 X112.993 Y102.088 E0.01683
G1 X115.163 Y104.258 E0.09653
G1 X115.211 Y103.771 E0.01540
G1 X112.993 Y101.553 E0.09866
G1 X112.993 Y101.018 E0.01683
G1 X115.283 Y103.308 E0.10188
G1 X115.372 Y102.863 E0.01430
G1 X112.993 Y100.483 E0.10586
G1 X112.993 Y99.948 E0.01683
G1 X115.476 Y102.431 E0.11047
G1 X115.598 Y102.018 E0.01355
G1 X112.993 Y99.413 E0.11590
G1 X112.993 Y98.878 E0.01683
G1 X115.734 Y101.619 E0.12196
G1 X115.880 Y101.231 E0.01307
G1 X112.993 Y98.343 E0.12846
G1 X112.993 Y97.808 E0.01683
G1 X116.049 Y100.864 E0.13595
G1 X116.221 Y100.501 E0.01263
G1 X112.993 Y97.273 E0.14362
G1 X112.993 Y96.738 E0.01683
G1 X116.408 Y100.153 E0.15191
G1 X116.608 Y99.818 E0.01227
G1 X112.993 Y96.203 E0.16083
G1 X112.993 Y95.668 E0.01683
G1 X116.815 Y99.490 E0.17003
G1 X117.040 Y99.180 E0.01205
G1 X113.037 Y95.177 E0.17808
G1 X113.083 Y94.944 E0.00748
G1 X113.148 Y94.753 E0.00633
G1 X117.269 Y98.874 E0.18331
G1 X117.510 Y98.580 E0.01196
G1 X113.312 Y94.382 E0.18674
G1 X113.518 Y94.053 E0.01222
G1 X117.763 Y98.299 E0.18888
G1 X118.022 Y98.022 E0.01191
G1 X113.764 Y93.764 E0.18941
G1 X114.053 Y93.519 E0.01194
G1 X118.298 Y97.764 E0.18885
G1 X118.580 Y97.510 E0.01192
G1 X114.381 Y93.311 E0.18680
G1 X114.753 Y93.148 E0.01278
G1 X118.874 Y97.269 E0.18331
G1 X119.180 Y97.040 E0.01203
G1 X115.177 Y93.037 E0.17808
G1 X115.668 Y92.993 E0.01550
G1 X119.490 Y96.815 E0.17004
G1 X119.818 Y96.608 E0.01220
G1 X116.203 Y92.993 E0.16083
G1 X116.738 Y92.993 E0.01683
G1 X120.153 Y96.408 E0.15191
G1 X120.501 Y96.221 E0.01244
G1 X117.273 Y92.993 E0.14361
G1 X117.808 Y92.993 E0.01683
G1 X120.864 Y96.049 E0.13594
G1 X121.231 Y95.880 E0.01269
G1 X118.343 Y92.993 E0.12845
G1 X118.878 Y92.993 E0.01683
G1 X121.619 Y95.734 E0.12193
G1 X122.018 Y95.598 E0.01326
G1 X119.414 Y92.993 E0.11587
G1 X119.949 Y92.993 E0.01683
G1 X122.431 Y95.476 E0.11044
G1 X122.863 Y95.372 E0.01396
G1 X120.484 Y92.994 E0.10583
G1 X121.019 Y92.994 E0.01683
G1 X123.308 Y95.283 E0.10185
G1 X123.771 Y95.211 E0.01473
G1 X121.554 Y92.994 E0.09862
G1 X122.089 Y92.994 E0.01683
G1 X124.258 Y95.163 E0.09648
G1 X124.770 Y95.139 E0.01612
G1 X122.624 Y92.994 E0.09545
G1 X123.159 Y92.994 E0.01683
G1 X125.309 Y95.144 E0.09566
G1 X125.876 Y95.176 E0.01785
G1 X123.694 Y92.994 E0.09706
G1 X124.229 Y92.994 E0.01683
G1 X126.484 Y95.249 E0.10030
G1 X127.143 Y95.372 E0.02108
G1 X124.765 Y92.994 E0.10579
G1 X125.300 Y92.994 E0.01683
G1 X127.869 Y95.564 E0.11430
G1 X128.692 Y95.852 E0.02744
G1 X125.835 Y92.994 E0.12712
G1 X126.370 Y92.995 E0.01683
G1 X130.190 Y96.815 E0.16996
G1 F8640
G1 X127.863 Y94.488 E-0.76000
G1 E-0.04000 F2100.00000
G1 Z0.800 F10800.000
G1 X135.572 Y93.101
G1 Z0.200
G1 E0.80000 F2100.00000
G1 F1200
G1 X136.904 Y94.433 E0.05927
G1 X137.142 Y95.206 F10800.000
G1 F1200
G1 X135.010 Y93.074 E0.09483
G1 X134.718 Y93.016 E0.00935
G1 X134.396 Y92.996 E0.01015
G1 X137.005 Y95.604 E0.11604
G1 X137.007 Y96.142 E0.01691
G1 X133.861 Y92.996 E0.13995
G1 X133.326 Y92.996 E0.01683
G1 X137.007 Y96.677 E0.16375
G1 X137.007 Y97.212 E0.01683
G1 X132.791 Y92.996 E0.18756
G1 X132.256 Y92.996 E0.01683
G1 X137.007 Y97.747 E0.21136
G1 X137.007 Y98.282 E0.01683
G1 X131.721 Y92.995 E0.23517
G1 X131.186 Y92.995 E0.01683
G1 X137.007 Y98.817 E0.25897
G1 X137.007 Y99.352 E0.01683
G1 X130.651 Y92.995 E0.28278
G1 X130.116 Y92.995 E0.01683
G1 X137.007 Y99.887 E0.30658
G1 X137.007 Y100.422 E0.01683
G1 X129.581 Y92.995 E0.33039
G1 X129.045 Y92.995 E0.01683
G1 X137.007 Y100.957 E0.35419
G1 X137.007 Y101.492 E0.01683
G1 X128.510 Y92.995 E0.37800
G1 X127.975 Y92.995 E0.01683
G1 X137.007 Y102.027 E0.40180
G1 X137.007 Y102.562 E0.01683
G1 X127.440 Y92.995 E0.42561
G1 X126.905 Y92.995 E0.01683
G1 X137.007 Y103.097 E0.44941
G1 X137.007 Y103.632 E0.01683
G1 X133.666 Y100.291 E0.14863
G1 X133.850 Y100.635 E0.01229
G1 X134.149 Y101.308 E0.02316
G1 X137.007 Y104.167 E0.12716
G1 X137.007 Y104.702 E0.01683
G1 X134.436 Y102.131 E0.11437
G1 X134.628 Y102.857 E0.02363
G1 X137.007 Y105.237 E0.10585
G1 X137.007 Y105.772 E0.01683
G1 X134.748 Y103.512 E0.10051
G1 X134.824 Y104.124 E0.01938
G1 X137.007 Y106.307 E0.09712
G1 X137.007 Y106.842 E0.01683
G1 X134.858 Y104.693 E0.09561
G1 X134.861 Y105.230 E0.01691
G1 X137.007 Y107.377 E0.09550
G1 X137.007 Y107.912 E0.01683
G1 X134.837 Y105.742 E0.09653
G1 X134.789 Y106.229 E0.01540
G1 X137.007 Y108.447 E0.09866
G1 X137.007 Y108.982 E0.01683
G1 X134.717 Y106.692 E0.10189
G1 X134.629 Y107.139 E0.01432
G1 X137.007 Y109.517 E0.10581
G1 X137.007 Y110.052 E0.01683
G1 X134.527 Y107.571 E0.11036
G1 X134.402 Y107.982 E0.01349
G1 X137.007 Y110.587 E0.11590
G1 X137.007 Y111.122 E0.01683
G1 X134.266 Y108.381 E0.12196
G1 X134.120 Y108.769 E0.01307
G1 X137.007 Y111.657 E0.12846
G1 X137.007 Y112.192 E0.01683
G1 X133.953 Y109.138 E0.13587
G1 X133.779 Y109.499 E0.01260
G1 X137.007 Y112.727 E0.14363
G1 X137.007 Y113.262 E0.01683
G1 X133.592 Y109.847 E0.15192
G1 X133.392 Y110.182 E0.01227
G1 X137.007 Y113.797 E0.16083
G1 X137.007 Y114.332 E0.01683
G1 X133.185 Y110.510 E0.17003
G1 X132.962 Y110.822 E0.01206
G1 X136.963 Y114.823 E0.17800
G1 X136.917 Y115.056 E0.00748
G1 X136.852 Y115.247 E0.00634
G1 X132.731 Y111.126 E0.18331
G1 X132.490 Y111.420 E0.01196
G1 X136.689 Y115.619 E0.18680
G1 X136.482 Y115.947 E0.01220
G1 X132.236 Y111.702 E0.18888
G1 X131.978 Y111.978 E0.01191
G1 X136.235 Y116.236 E0.18941
G1 X135.946 Y116.482 E0.01194
G1 X131.701 Y112.237 E0.18885
G1 X131.420 Y112.490 E0.01192
G1 X135.619 Y116.689 E0.18679
G1 X135.247 Y116.852 E0.01278
G1 X131.126 Y112.731 E0.18331
G1 X130.822 Y112.962 E0.01201
G1 X134.823 Y116.963 E0.17799
G1 X134.332 Y117.007 E0.01550
G1 X130.510 Y113.185 E0.17003
G1 X130.182 Y113.392 E0.01220
G1 X133.797 Y117.007 E0.16083
M73 Q11 S8
